/* XPM */
static char *chihiro3[] = {
/* columns rows colors chars-per-pixel */
"64 64 244 2 ",
"   c #2F2318",
".  c #342517",
"X  c #3A2516",
"o  c #3D2917",
"O  c #332618",
"+  c #3C2A19",
"@  c #3A2518",
"#  c #491E14",
"$  c #5C2C0F",
"%  c #432515",
"&  c #4D2316",
"*  c #442B16",
"=  c #4B2D16",
"-  c #422519",
";  c #4E2418",
":  c #442D19",
">  c #492E18",
",  c #542216",
"<  c #5B2316",
"1  c #532E15",
"2  c #522519",
"3  c #5A2518",
"4  c #532819",
"5  c #5C2819",
"6  c #5B2E12",
"7  c #4E3017",
"8  c #4C311A",
"9  c #46311D",
"0  c #543116",
"q  c #5B3315",
"w  c #54341A",
"e  c #5B3619",
"r  c #5D391C",
"t  c #56391F",
"y  c #66290F",
"u  c #642516",
"i  c #6C2616",
"p  c #6D2A16",
"a  c #642618",
"s  c #642919",
"d  c #6B2919",
"f  c #672A15",
"g  c #732615",
"h  c #7B2714",
"j  c #752816",
"k  c #7C2916",
"l  c #732918",
"z  c #7B2B19",
"x  c #633414",
"c  c #6A3513",
"v  c #653817",
"b  c #6A3A16",
"n  c #613719",
"m  c #643B1B",
"M  c #6B3D1A",
"N  c #733514",
"B  c #743C15",
"V  c #7A3B16",
"C  c #713F19",
"Z  c #7C3615",
"A  c #792A0C",
"S  c #4C3723",
"D  c #543B23",
"F  c #5C3C22",
"G  c #563620",
"H  c #633D21",
"J  c #6A3F23",
"K  c #6D411D",
"L  c #66411F",
"P  c #74421B",
"I  c #7C451B",
"U  c #7D491E",
"Y  c #7B4217",
"T  c #5C4125",
"R  c #5A462C",
"E  c #5A4D33",
"W  c #595338",
"Q  c #644223",
"!  c #6C4323",
"~  c #6B4926",
"^  c #644629",
"/  c #644B2B",
"(  c #6C4B2A",
")  c #654927",
"_  c #734624",
"`  c #744925",
"'  c #7B4B23",
"]  c #734C2A",
"[  c #7B4C28",
"{  c #784727",
"}  c #6D522C",
"|  c #74522C",
" . c #7B532B",
".. c #7C552A",
"X. c #645333",
"o. c #6B5333",
"O. c #6D5934",
"+. c #625639",
"@. c #655B3B",
"#. c #6C5C3A",
"$. c #7D5B33",
"%. c #735934",
"&. c #654D32",
"*. c #6D613E",
"=. c #74623C",
"-. c #7B643A",
";. c #3D796A",
":. c #5A674B",
">. c #5D6E50",
",. c #5B7558",
"<. c #686847",
"1. c #776B44",
"2. c #7B7549",
"3. c #677A57",
"4. c #767952",
"5. c #66704F",
"6. c #4B7B65",
"7. c #467A66",
"8. c #547C64",
"9. c #607E60",
"0. c #5A5E43",
"q. c #842B15",
"w. c #8B2C15",
"e. c #852E19",
"r. c #892D16",
"t. c #922D15",
"y. c #992F15",
"u. c #8B3119",
"i. c #843816",
"p. c #953016",
"a. c #9B3216",
"s. c #983618",
"d. c #90300D",
"f. c #B7380F",
"g. c #A33316",
"h. c #AC3919",
"j. c #A83717",
"k. c #B53C17",
"l. c #C8380E",
"z. c #D03C0F",
"x. c #E53D0E",
"c. c #824619",
"v. c #83491C",
"b. c #8C4C1A",
"n. c #884617",
"m. c #924C17",
"M. c #934E18",
"N. c #9F441A",
"B. c #965019",
"V. c #9B5219",
"C. c #985017",
"Z. c #A7491B",
"A. c #B84618",
"S. c #A2551A",
"D. c #A85919",
"F. c #B05D1B",
"G. c #824D23",
"H. c #874E25",
"J. c #845225",
"K. c #8A5425",
"L. c #8B5927",
"P. c #83542A",
"I. c #8A542A",
"U. c #845A2D",
"Y. c #8C5A2C",
"T. c #945C2B",
"R. c #9B5E2A",
"E. c #975A26",
"W. c #885D31",
"Q. c #925E30",
"!. c #A15825",
"~. c #95602C",
"^. c #9C622D",
"/. c #9B6027",
"(. c #8B6333",
"). c #8B6C3B",
"_. c #83663A",
"`. c #9B6632",
"'. c #956935",
"]. c #8C703D",
"[. c #9B733A",
"{. c #8C642F",
"}. c #A2642B",
"|. c #A6682C",
" X c #A76B30",
".X c #A9773B",
"XX c #DB4813",
"oX c #C54414",
"OX c #E9420F",
"+X c #E94812",
"@X c #F44D11",
"#X c #FA5A15",
"$X c #F85514",
"%X c #F1460F",
"&X c #FB6618",
"*X c #FC741E",
"=X c #F87921",
"-X c #837244",
";X c #897847",
":X c #977945",
">X c #847348",
",X c #A77C42",
"<X c #6E835E",
"1X c #77845A",
"2X c #4D8069",
"3X c #548164",
"4X c #558469",
"5X c #588769",
"6X c #578B70",
"7X c #698964",
"8X c #778D63",
"9X c #76956B",
"0X c #739B73",
"qX c #749970",
"wX c #6D9772",
"eX c #7DA276",
"rX c #FC8829",
"tX c #FC9231",
"yX c #97844C",
"uX c #888756",
"iX c #968E55",
"pX c #8E935E",
"aX c #97935A",
"sX c #8D804C",
"dX c #A68447",
"fX c #A59456",
"gX c #B38F4D",
"hX c #B3A25E",
"jX c #8C9461",
"kX c #879867",
"lX c #939B64",
"zX c #818F61",
"xX c #A59E60",
"cX c #99A36A",
"vX c #95AA73",
"bX c #9EB279",
"nX c #ACA362",
"mX c #ADAA69",
"MX c #A6A668",
"NX c #B7AA65",
"BX c #D0AE5F",
"VX c #C1AB62",
"CX c #C3B46A",
"ZX c #C28C43",
/* pixels */
".Xo.'.H.m i.I.P.I.P.[ { J { { w H P.G.P.I.I.I.I.T.T.E.E.E.R.R.{ r T.^.T.L.I.I.P.P.P.P.P.[ ] G H { H { [ [ ' [ [ ] G.V m G.;X>.;X",
"gX,X%.N  X' i.I.I.P.{ { G.{ { H e [ P.P.I.T.E.K.R.R.R.!.R.R.b y y f K.^.^.T.R.T.P.P.P.P.[ H w ! ! [ [ { { { { [ G.Z (  .x :.sXyX",
"dXdX(.y  .ZX' Z G.P.I.I.{ H H ! n J I.I.T.R.R.!.}.}.|. XS.j.l.x.OXz.l.Z.^.}.R.T.T.L.I.J.[ r r w F Q { G.J.J.' v.n.( o.&.x -.iXfX",
".X.X'.Z o.@..XK.n.K.{ J J J { H w b [ L.T.^.^.R.}.^. XZ.z.%X$X$X$X#X$XOXA.}.|.R.T.L.L.P.H ! Q F [ ! H F [ G.C v.| +.#.).b :XyXfX",
".X.XU.N (.-XW '.' Z b ' G.G.( F H ! J I.T.R.^.^.^.}.!.z.@X$X&X&X*X&X$X$XOXZ. X^.T.T.L.[ m ' F F P.P.P.' Q P N  .o.-.dX).b [.dXyX",
".X[.(.Z (.:X:XR ^ H n.I.P.P.] F F ' b ' T.R.}.}.}. XZ.+X#X&X*XrXrXrX&X#X$XA.^.^.T.T.L.m { [ F F ] ] ' P.K.n.C F ).:X;X[.x `.,XyX",
"[.[.U.f W.,X(.F <.&.m b.K.L.I.! H ' { m I.^.T.T.T.^.A.$X#X&X*XtXrXrX&X#X#XoXT.T.T.^.[ b { ] F H  .[ ] G.v.^ b ! ( :X-X(.x J.dX,X",
"P ~.' Z K.'.G _.sXQ ^ o.n.G.U.! ! ' ' ! ! P.P.L.T.^.A.+X#X#X*XrXrX*X#X$X$Xk.I.L.P.[ m [ ! ] m H U.P.G.n.%.W.x ).! ] [.G.n. X .m ",
"x b  XI R.F ] :XyX! ] 2.%.Z ' ] ! ] [ ' H  .Q.^.}. X!.XX+X@X&X&X&X&X@X@X+XZ.`.^.'.! ! [ ( ( m F ..P I $.:XW.b ).).m J.}.[ ~.m x ",
"c G.R.q R.P '.-X;X~  .1.1.] i.H ' L.P. .{ ! L.T.^.`.^.A.x.OX%X@X$X@XOXOXl.R.^.~.P.m [ ]  . .{ F ' N ^ :X-XW.P ].-XU.P E.6 K.' x ",
"x G.R.c E.U [ -X;XQ P.:X1.( P I K.'.U.] ! r ' L.T.~.`.R.k.l.f.f.f.f.z.f.!.^.T.T.H H ^ ( ( |  .P [ Q R o.-XU.m ].).[ I K.c E.{ c ",
"x v.^.$ R.I 6 ! -.G.J.,X-.H  .$.v.P.] [ ] { m P.L.T.T.`.`.H.A d.d.A n.}.^.T.~.' H ] ( ( ( ( U [ <.! =.+.o.' v...Q 6 P ^.x ^.b q ",
"* = [.}.|.c b q ' L.v.(.#.| ' -.Q b  .P.] ! F ! U.W.W.W.'.`.R.b.b.R.}.^.L.L.L.m F Q ( ] ( P m <.1.P #.5.o.v.J. .q C c R..XU.% = ",
"b 6 e U.b c c x K.! ' P.1.$. .E #.! I ! ]  .Q F (  .|  .U.L.^.' J.^.T.L.P.P.! H H ( / ^ ' { T +.1.{ O.@.U.U b J.x b c 6 w 6 x x ",
"w e x & % = q x K.P P ' / ( m 1.>X^ | b  .P.! [ D ( ] | U.L.Z.f.A.Z.L.P. .( D Q F %.o.m ( o.( W o.P } T ' U N J.q 0 % = q q e w ",
"w > > w q 6 = % [ K.K.I q G.' ).-X( #.( K  .! ! F D ( ] | A.@X&X&X@XZ. . .T T Q F R ~ m @.} ( 1.( v. .q U R.L.! % q x 0 = 9 w w ",
"4.O.F * * x x x 6 P.J.x C J.U P._.! =.( o.P K D D S S D n XX&XrX=X#XoXw D 9 D D r m / ^ @.( Q +.J.P L.b q ' L.q x q v 0 * F +.5.",
"0X0X4.w > x = = q x 6 = m J.v.b m ' _. .o.Q b S 9 9 w w m XX#X*X*X#XoXw 9 9 9 9 K r E / *. .' w J.U P.= = q 6 0 = * b x > / 9X0X",
"9XwX<XF = N @.R > > 0 0 = P.L.q P J. .! D w w w w w | $.e s.XXXX+XXXi.r e w w 9 t 9 D ! ) '  .m b }.K q 0 * > D +.5.~ x = O.0X9X",
"hXkX<XF w Y 8XqX3.R * q = = 0 = m E.G.' Q e e e w w Q H n m N N N N m m e w w 9 w w w  .! K.L.w 0 q = v = 9 <.7X9X0X..c 0 %.0X9X",
"9XeX8XF e B.<X0X0X3.w b E D > 6 q J.m L.G.' b e m e q q e q e b v v x q m e w e m ' ! L.K K [ 6 w w @.| q R 9X0X9X9XU.N w =.0XkX",
"o.<.5.F e S.8XcXlX3.e P 7X9X+.6 r = 6 m m ^.J.m e e w q w e 6 q q q q 0 0 q q b K.~.! r w * 9 e D 1XeX(.c / 9X0XlXqX'.c.w | 2.-.",
"<.O.( m q m.=.4.zX3.e v.<X0X5.x 5.0.> = w P L.' v v m q r v m ! { ! b b x b x K L.m m * * R <XQ Q 9X0X'.N / 9X8X<X5.K.Y e K [ ..",
"mXvXkX( q c.%.%.%.( e v.2.uX<.x <X,.w w q } kX8XkX2.v m q O.kXkXkXkX;Xb m x -.jXuX1XQ 7 0 @.kXQ Q jXjX[.N r | | | | U b e 1.kXcX",
"BXVXhX .q I jXvXcXuXr P -.-.( x =.<.r w q -XbXNXvXjXb b x 1.vXcXcXvXaXb m b ;XvXcXMX| 0 w +.;XK m U.$.J.b Q uXjXcXNXT.x n sXmXNX",
"NXNXhXP.q P iXnXcXaXm P jXvX2.x -X=.r r q ).CXBXCXaXK K b -.cXNXNXMXfXb P N ;XNXBXVX .0 r / -XK ) iXkX{.c o.cXcXNXNXT.x m yXVXVX",
"MXMXxXL.q I aXNXmXaXm P fXNX;Xx uXuXm r q ).mXnXmXaXb U C [.mXnXNXNXgXK U I ;XmXMXcX| 0 e *.lX[ } cXMX{.x | nXNXNXnXL.v b dXNXfX",
"nXmXnXU.q I aXMXmXfXK P fXmX:Xx yXyXm r q ].CXVXNXfXm U b [.NXNXNXmXaXK K b -XmXMXcX| 0 w =.fXK } nXNX{.x $.nXnXMXlXU.x m yXmXnX",
"jXjXpXP.q C uXlXkXuXm b uXkX-Xx 2.2.q r q -.MXaXlXsXm m x -.lXlXlXlXsXb K b 1.kXjXaX( 7 w #.kXL ( kX8X-.x O.kXpXjXkX .x m >XkXjX",
"3X3X8. .0 b ,.3X3X,.m m >.5X5.x >.>.w 9 q @.5X3X4X3.m e q *.7X3X3X5X,.K m v :.6X3X3XR = w W 6.t R 3X2XO.x E 2X6.6.7.) q r :.7.6.",
"4X4X8.| w m ,.5X4X,.r m 3.6X>.q >.5.6 > 0 T >.>.>.@.x e 0 / 3.,.,.,.<.m e q E >.>.>.t * w W 3XF R 3X6.} $ E 2X8.8.6.) q r >.7.6.",
"7.7.8.( 6 x ,.4X4X,.e e >.9.+.6 R T = = 7 q q q x x e 0 w q r m m m v e 0 e q q r w 9 * = t +.w T ,.6.+.$ W 7.6.8.7.Q q e :.7.7.",
"8.6.8.( 6 x ,.8.>.#.w e Q L e q c i.u.4 * = 7 7 0 w 0 = 7 w 0 q q 0 q 9 7 w w 9 w = * * s i.N q 0 Q Q K 6 T >.6.7.7.) 6 e :.;.7.",
"8.6.>.! = v / ! b x 0 q c Z i.s.h.s.r.s * > 9 w w w w = 9 7 w e e e w 9 9 9 w 9 9 * + & l u.s.j.i.N x x 6 w m ) +.W Q 6 e :.;.6.",
"+.( { e 6 x q q q f Z s.h.k.g.w.w.k l s * 9 w e w e w = 9 w w w r w w 9 * 9 w w 9 > * 4 l j k w.a.h.h.s.Z c q q m m x = > ( :.:.",
"n n n q q q c Z q.k.k.h.g.t.w.k z l d 3 + * 9 9 = w 9 = * 9 w w w w 9 9 * = 9 > * * + ; d l k j q.w.p.g.h.h.p.N x q 6 6 0 e m b ",
"q q q p e.a.h.k.t.y.y.t.w.w.w.k z d 3 , 5 s s d > 9 9 * * 9 9 w 9 9 9 * * > > 5 5 5 4 ; , s l i k w.w.w.w.y.a.g.h.a.e.c x q q m ",
"f e.a.j.h.j.a.t.w.q.t.t.w.w.q.l d < < d z r.u.z ; * 9 * * 9 9 w 9 9 * * + * - d r.l d d , , d a j k q.w.w.w.h w.y.g.k.k.a.q.p 6 ",
"p.g.h.a.t.t.t.w.q.h w.w.k z g a 3 i z r.w.s.u.3 X * * * * 9 9 9 9 9 * * + + + ; z p.p.w.z i 3 , i k k h q.w.g q.t.t.t.y.g.k.p.q.",
"a.q.w.w.w.w.w.w.k g k k l d < < i z q.t.a.p.d % o * * * + + * * * * * + + + + X 5 u.a.w.q.k i , < i j h q.h g w.w.w.t.w.t.w.q.y.",
"t.h h w.w.w.q.h j i g l a a g q.t.y.g.h.a.i 4 + + + * * * * * * 9 9 * * + + + + * 5 u.j.a.a.t.q.i < a i g i g q.w.w.w.w.w.q.q.w.",
"q.g g q.k k h g i a a < i k w.p.a.g.j.g.z 4 * * * 9 w w t w t t t r r w 9 9 9 * + - d s.g.a.a.t.q.k a < i a a h q.w.q.h h g q.w.",
"q.g i k g g j i a , , a z q.w.t.a.g.g.k 3 * * * w r r r m m H b K K b m r w w * * + & d p.h.g.a.w.q.j a < , < g g h q.g g i h h ",
"k g a j j g i a 3 a i k q.t.t.t.a.t.k s * * * w m m m K K P P P I P P K m r r w * * * 4 j p.a.t.t.w.q.k i , , i g g g g g a h h ",
"z i < i i a 3 < i k w.t.a.g.g.j.h.k a * 9 > 9 m m K { P I I U I v.n.v.I K K r r w * * * < p a.g.g.g.a.t.q.g a < < i i i i a g k ",
"i a 3 a 3 , a g k r.w.t.a.g.g.g.q.p & * w > r b K K P I v.v.m.b.b.b.b.I P b m r r 9 > > * < z a.h.a.a.w.q.h g i < , < a a < g g ",
"a a , 3 , a l k q.w.p.p.a.g.a.q.p 6 * w = w m K P P I I b.b.C.C.C.m.b.I I P P m m e 9 = > & a j a.g.a.a.w.q.k j g < , < a < i i ",
"s , # , a a g j k q.w.w.p.a.k p < * w 6 w m b P I I v.v.b.B.D.S.D.C.m.n.I P P b m m w > 0 = & d k a.a.p.w.q.k g a a < & & , a a ",
", , a l z r.r.w.t.t.a.a.p.g i d % = 0 7 r m b P P I v.b.b.C.S.S.D.C.B.b.v.I K b m m e > = = o q d j q.q.q.q.q.k j i i a , # < a ",
", a l j k r.q.t.t.a.a.g.w.a d = * = = w m b C I P v.n.b.m.C.C.C.S.m.m.b.n.U b P b m m 0 = * * * s a i p.t.a.a.w.w.q.k g i a < , ",
"s l l g k q.w.w.t.a.g.t.i a & * = * 9 m b b C P I n.n.B.m.C.B.m.S.C.m.m.Y v.I P b v m q w = = * % < < j a.t.w.w.w.q.k k g i i < ",
"d d l k q.q.q.w.a.g.w.i d & * w 6 = w m b b b P I I n.b.m.C.S.C.C.m.m.B.n.n.I P P m n e e 9 = = * % a a k a.p.p.w.w.w.k i i i i ",
"l z r.q.q.q.w.t.a.w.i d , X > 0 = 9 e m b P P P v.n.n.b.m.C.C.C.S.C.b.b.n.I I I P b m m e w > = 9 o & f a k p.t.w.w.q.k l z l d ",
"l z z q.q.r.w.p.t.j a < X * e 0 > e m b b P P I v.I v.b.m.C.C.m.m.C.b.b.v.I v.I C P b m m e 9 * = * X , s a k p.w.w.q.z z l l l ",
", 3 3 3 a a i k j a a % * 7 q > w m m m K P C I I I v.b.m.B.m.C.m.m.c.b.n.Y I v.C C C m m e w * = = * % , s a k k i p a 3 < < 3 ",
"; ; & , , ; & < a a % o 9 0 = 9 e m m m P P b P I I b.b.m.C.C.C.C.m.c.b.I C I I b b P b m r e = * = = o X < < a , ; & ; , , , , ",
", ; ; , ; , ; , a & X * 6 6 > e e m e b b b b b P n.b.b.m.B.C.B.m.m.c.v.I P b P b b C b m m e e * * = * + % < < & & ; , , ; , , ",
", , , ; ; , , , & . * * 6 > w e m r m C P b P P I I v.v.m.m.m.m.m.b.n.v.v.I P P P b b b m m e e w * = * * o % , & ; , ; ; , , , ",
"@ @ - @ - - X X X + * = = * w e m e b P P C P P P I n.n.b.b.b.b.b.n.I I I I C P P b b P m m m e e 9 * X * * o X X - - - - - - - ",
"      O O O . o * + = = * 9 w m e m b b b C P C C P I I v.b.v.I v.v.I I P P b P I P b b b m r e w w * * * * * * . O O         O ",
"O . X . . . + * * o = > * w w e n m b b b C P b b P I C I v.I I I v.P C P P b b P P b b b m m e w w 9 * = = * > X + . O O O O + ",
"+ + + + X X X * * * > * w w e e m m m m b b b b b C P b I I I P I I P b b P b C C P b b b m m r w w w * * 7 * 9 X + . O O + + + ",
"+ * + + @ X o * 7 0 * > w e e e m m m m m b b b b P P b P P P I I P P b P P P C P P P b b m r r e w w w * > = 7 o + . + + + + + ",
"+ + + + + X o * = * * w w e e e m e n e m b b b b P P b P P C P P P b b P P P b P b P b m m m r e w 9 w > + = 7 + + . + + + + + "
};
