/* XPM */
static char *chihiro4[] = {
/* columns rows colors chars-per-pixel */
"64 64 207 2 ",
"   c #1D2709",
".  c #1C2D0A",
"X  c #172A0A",
"o  c #1E310C",
"O  c #1A2F10",
"+  c #1D3412",
"@  c #1F3915",
"#  c #1F3B19",
"$  c #252607",
"%  c #292706",
"&  c #212F07",
"*  c #2C2A07",
"=  c #212608",
"-  c #232D0A",
";  c #2A2D09",
":  c #322E07",
">  c #312F08",
",  c #243307",
"<  c #2A3507",
"1  c #2D3907",
"2  c #23340B",
"3  c #2B340B",
"4  c #27380B",
"5  c #26380A",
"6  c #25390D",
"7  c #26390D",
"8  c #283809",
"9  c #2B3A09",
"0  c #29390A",
"q  c #2C3A09",
"w  c #2E3D09",
"e  c #283A0C",
"r  c #2A3D0D",
"t  c #2B3B0B",
"y  c #343607",
"u  c #343D07",
"i  c #3B3C07",
"p  c #33340A",
"a  c #3A3509",
"s  c #313E09",
"d  c #333C0B",
"f  c #3C3B0B",
"g  c #3D3307",
"h  c #203710",
"j  c #223511",
"k  c #2C3612",
"l  c #243A14",
"z  c #283F16",
"x  c #2A3C12",
"c  c #233D19",
"v  c #2A3E18",
"b  c #323611",
"n  c #343A13",
"m  c #3A3C12",
"M  c #343D19",
"N  c #423D07",
"B  c #433C0B",
"V  c #4A3F0B",
"C  c #413E10",
"Z  c #2E410E",
"A  c #374107",
"S  c #3C4207",
"D  c #33400A",
"F  c #344008",
"G  c #364209",
"H  c #34420C",
"J  c #384308",
"K  c #394409",
"L  c #3E4709",
"P  c #3B440A",
"I  c #3C480C",
"U  c #274016",
"Y  c #2C4213",
"T  c #26421C",
"R  c #2B431B",
"E  c #324413",
"W  c #3C4215",
"Q  c #364915",
"!  c #3B4B13",
"~  c #32451A",
"^  c #344A1D",
"/  c #394E1D",
"(  c #3F5014",
")  c #3E521C",
"_  c #2B4720",
"`  c #2D4A23",
"'  c #324D24",
"]  c #345127",
"[  c #3C5425",
"{  c #3F5827",
"}  c #355328",
"|  c #3A572B",
" . c #3D592C",
".. c #434406",
"X. c #4B4406",
"o. c #444907",
"O. c #4C4B06",
"+. c #44430B",
"@. c #4B430C",
"#. c #424A09",
"$. c #434B0B",
"%. c #494D09",
"&. c #4E490C",
"*. c #514606",
"=. c #554C06",
"-. c #5B4D06",
";. c #52460C",
":. c #5A460C",
">. c #554A0C",
",. c #5B4C0D",
"<. c #4C510C",
"1. c #555107",
"2. c #5C5007",
"3. c #424313",
"4. c #4B4411",
"5. c #434D12",
"6. c #4D4913",
"7. c #43441A",
"8. c #48461B",
"9. c #4D4A1C",
"0. c #524710",
"q. c #534A12",
"w. c #5C4D11",
"e. c #514C1B",
"r. c #594E1A",
"t. c #445317",
"y. c #4B5512",
"u. c #42551C",
"i. c #4B5B1E",
"p. c #5D5115",
"a. c #5B541D",
"s. c #56511D",
"d. c #634D0C",
"f. c #694D0B",
"g. c #635205",
"h. c #685205",
"j. c #63510E",
"k. c #6A540D",
"l. c #6D5905",
"z. c #71540B",
"x. c #7D5B0D",
"c. c #755B0F",
"v. c #644E12",
"b. c #655513",
"n. c #6A5513",
"m. c #6D5813",
"M. c #6A5A19",
"N. c #645418",
"B. c #745C12",
"V. c #705E1A",
"C. c #7C6114",
"Z. c #736019",
"A. c #4E4D25",
"S. c #415723",
"D. c #4D5E23",
"F. c #445E2E",
"G. c #465A22",
"H. c #47602F",
"J. c #4A612D",
"K. c #50662F",
"L. c #466131",
"P. c #4C6532",
"I. c #506834",
"U. c #8B5707",
"Y. c #855C0A",
"T. c #8C5B09",
"R. c #845708",
"E. c #955F09",
"W. c #985F08",
"Q. c #80600D",
"!. c #8B620D",
"~. c #95630A",
"^. c #9E6A0C",
"/. c #816213",
"(. c #8D6A15",
"). c #956A10",
"_. c #9E7214",
"`. c #A36A0A",
"'. c #AC6C09",
"]. c #B16E08",
"[. c #A6710D",
"{. c #AA720D",
"}. c #B67006",
"|. c #B6740C",
" X c #B2780F",
".X c #BC770D",
"XX c #A67816",
"oX c #B27710",
"OX c #B77D11",
"+X c #C17B0D",
"@X c #C07F10",
"#X c #BC881C",
"$X c #C6800E",
"%X c #CB820F",
"&X c #C68412",
"*X c #CE8914",
"=X c #CB8A15",
"-X c #D28B13",
";X c #DE9718",
":X c #DB9B1D",
">X c #EBA21B",
",X c #E5A926",
"<X c #F0AC21",
"1X c #FBBF2E",
"2X c #F3B327",
"3X c #F5BE33",
"4X c #FCD447",
/* pixels */
"  . . . o o o 2 2 o 2 o . $ $ o o o o o o o 2 2 2 5 2 2 2 2 2 5 8 8 8 8 5 2 8 8 s G 8 8 2 2 2 2 2 $ . o o o $ . . . % = . . . . ",
". . . . 2 2 2 2 2 8 2 2 $ $ o l o o 2 o 2 2 2 8 8 8 2 2 2 2 8 s G G G s 8 8 G J G J 8 5 8 8 8 2 2 2 ; . o 2 . . . o ; = . . . . ",
". o o . 2 8 s 8 8 8 s 8 2 o j Y 2 2 5 2 2 8 8 s G G 8 5 2 2 8 s G G G 8 G G I &.G 5 5 5 8 G G 8 8 8 2 $ . 2 o o . . $ =   . . . ",
". . o . o 2 8 8 . 8 s G 8 2 o o 2 2 2 5 8 8 8 8 s J J J s 8 5 5 8 G G G I $.$.J 8 2 2 o G J J I G 8 2 o $ . o 2 o $ $ = . . . . ",
". . . . . . . .   $ 2 8 s 5 2 2 2 8 2 5 8 8 8 8 5 8 G I $.J 8 8 Y Y G $.&.$.G 5 2 o o o 8 5 J $.G 2 ; ; & $ . 2 2 $ ; = . o . . ",
". . . . . . . . ; 2 2 5 5 l 5 5 2 ; 8 8 8 8 8 8 5 5 G $.<.5.E ^ ^ G $.$.&.G 8 2 8 8 8 8 5 2 8 5 G 2 o o 8 ; ; . o j ; $ . o . . ",
". . . 2 o o . $ 8 + 2 2 5 R l $ ; p x 8 5 8 8 s Y E G J I ! ) | Q G G G G Z 8 8 G J G Z 5 2 o o o o o o + j p ; . + 2 % . o . . ",
". . . o 2 2 $ ; + + l l 2 2 ; : 8 5 x 8 8 8 G J ! ^ / G ! ! )  .[ ^ E E Y Y Y I J G G 8 8 2 o + o + o 2 + + o ; ; $ $ ;   . . . ",
"o o o 2 2 2 2 2 2 + j 2 ; : a 8 5 8 8 Y E E G G J ! [ ) ! 5.)  . .| ^ ^ } ' ~ ! <.$.J G 5 2 o o + o 2 2 8 5 2 o 8 ; $ ; =   . o ",
"2 2 5 2 8 8 2 8 8 . $ : p 8 2 5 8 G G G ~ Q E G Q ! )  .[ [ [ | } ] } ` ` ' t.5.<.I J 8 2 o l + + 2 2 5 8 8 2 o o p ; ; $ . o . ",
"o 2 2 2 5 2 2 8 s 8 p 8 l l 2 5 8 G G E ^ [ ) Q / [ [  . . . .' _ T T T T R 5.E Y G Y l + v A.M + l 5 8 8 8 2 2 o . : : = O + . ",
"o o . . + . = $ s J 8 2 8 8 8 5 x x Z Y ^ [ [ F.{  .F.F. .] ] ` R T c l c E Y l l l l l + 7.9.M j + 5 5 2 2 2 $ . o $ : $ . + . ",
"+ + . . . = $ : p 8 x k 2 x 8 8 8 8 E E E E ) F.F.F.F.F.} ` ` R T c c c c c @ l l l l l + M m ; 2 + j 2 2 2 2 8 $ o 2 : ; $ X . ",
"+ @ +   . $ : k c c T c l x 8 Y E Y ! I I ! 5.u.L.H.L.F.| ` R T T T c l Y Y l l l l l j j M m b j j + o 8 8 5 2 8 ; . p : $ . . ",
"+ + .   $ : 2 # T R R R R ^ E Q ! / I $.u.G.t.i.J.L.} ] ' _ T T R R T x Y Y l l l l + + x m 3.m ; 2 + o 2 2 2 o o 8 $ ; : $ . . ",
"+ O . $ : k # l c T _ ' [ [ Q I S.G.u.y.y.i.L.L.L.F.} ` T T T Y Y Y Y x l l l 5 l + + x M m m m 8 8 k + + + o o o o p : a ; . O ",
"+ $ $ ; 8 @ c @ c c R [ }  .) ) F.L.L.D.i.D.I.L.L. .} ` _ T R Y E Y Z Z 5 l l + + x W m m 3.7.7.m k b k j + o 2 2 2 2 a a ; $ . ",
". $ ; : + + + + @ c T T R ` | F.F.L.L.L.K.I.L. .F.F.} ] ` T c l Y x Z 5 x x l x M 7.7.7.7.8.9.n.;.b b M M k j j j 2 o 2 a ; = . ",
". $ : 8 + + l l l l l c c T } ] ' }  .L.I.L. .} ' ] } ' R l @ l l Z 8 l W d.4.3.7.8.9.e.r.N.B.(.d.B a b k k b b a 2 + o a : $ . ",
"$ ; p + + j 5 x 8 l + @ @ T ` _ ` ` } F.L. .} ` ` ` ` T c l x G G G G Z G >.k.x./././.(._.XX#X=XoXY.f.:.@.B B B p + + + p a ; . ",
"$ ; $ + + 5 5 5 8 l + + @ c T T ` ` `  .| ` ` ` _ T T T U Y G G J I J G G 8 +.k.Q.!.!.^.[.{.{.~.E.~.Y.Y.z.,.+.8 2 j j j 8 a ; $ ",
"$ $ o + + 2 5 5 8 8 Y l + l l c R ` ` ` ` ` T T T T c T G I Z G $.J G 8 8 s 8 8 s +.Y.^.`.'.`.E.E.W.U.;.s 8 2 2 5 5 5 2 2 p ; $ ",
"$ 2 o 5 5 5 8 Z G G G x + @ l c T R R ` T T T T T T c Y Y Y 8 G G x j 8 8 8 s s G +.~.|.*X:X&X`.&X%X.Xd.W x 2 8 8 5 2 o o 8 8 $ ",
"o 2 5 5 8 8 8 G G G Z l l c c T T c c c T T T T T c c l l @ x x l l l x p 8 s s s $.`.$X<X1X:X'.;X>X-Xk.J M l 8 8 5 2 2 o $ 8 $ ",
"2 2 2 2 2 5 5 8 G J Y l Y Y Y c c c c c T T T T c l l l l l l l l x 8 x s x s s M +.[.-X2X4X,X}.,X2X-Xd.J 8 8 8 G G s 8 2 2 2 $ ",
"o + . . + o 2 8 G J I Y Y E Y l c c c c T T c T R c c Y Y l x x Z G J J G G s x M 3.[.-X,X3X:X].:X>X*Xd.G 8 G J G G G 8 8 8 2 2 ",
"+ + + $ + $ + l 8 G I G 8 Z Y l # c c l @ U Y Y E Y l Y Y 8 G G G J J G G s s s E W ^.&X%X-X@X`.'.+X|.,.s s J J G 8 8 8 2 2 2 2 ",
"O + + 2 $ 2 + + 8 8 8 8 5 G G Y l @ l @ l Y E Y G G Y 5 8 Z G Z G G 8 8 5 8 s x x 3.Y.`. XOX X~.R.T.T.;.s 8 8 s 8 2 2 2 2 2 $ $ ",
"2 o + $ 2 + + + j + + 2 j l x l @ @ @ l Y Y E G G Z 8 8 8 8 5 l 8 8 5 2 8 8 8 l &.x.!.)._.XXXX!.z.z.f.,.@.k j 8 j + + 8 2 o $ $ ",
"5 2 2 $ $ + l l j + + 2 j l l + + @ @ Y E Z Z 8 8 Z G G 8 8 8 8 8 8 2 j 2 p 2 x j.k.c.C.C.B.C.k.@.@.@.B B x l 8 5 2 5 2 2 o . $ ",
"2 j o $ + + j j + + j l l l l + + l @ l l l l l 8 J G 8 8 8 f f f s 8 8 j 8 2 j J ;.>.,.,.,.,.@.a f a a p j x s s 8 8 2 8 8 2 2 ",
"j k 2 8 k j k M j j j x M l l l @ + + l @ @ @ l G 8 2 j l s f +.s s 8 8 8 8 2 j l x f i N N N a p p p 8 2 j 8 G J G 8 s G s 2 2 ",
"$ 8 2 8 8 8 8 b 8 p k b m x x k x + + l l + l l + j j 2 s f f s s 8 s G G s 8 8 l j j f B B f p p p 2 j 2 s J $.J J s J J s 2 2 ",
"2 8 2 8 8 8 8 p 2 8 2 k M k k 8 k j l l l l x x l l l 8 8 8 8 8 2 8 s s s 8 G G 8 5 j s B B f p p 8 j 2 2 8 J J G J J ..i 8 2 2 ",
"2 8 $ 2 8 8 8 8 $ $ $ 8 p k k k 8 + + 2 l 8 8 8 5 5 8 5 2 2 2 8 2 2 2 2 8 G $.J G 8 8 8 @.B B p a 8 2 8 s s s 8 f -.g.*.....i 2 ",
"2 2 2 2 8 8 8 8 j 2 2 8 2 2 j 8 2 + + o 2 2 2 o 2 2 2 5 2 2 8 8 5 o 2 G I $.J J G 8 8 G >.w.>.f f s 8 8 s s 8 f X.-.h.-.*.X.i 8 ",
". 2 8 8 s J J J 8 2 5 s 8 8 2 l j j 2 j l x ~ ~ ~ ~ M x x 2 2 5 2 2 G J G G G J J s 8 +.N.n.N.f f s 8 8 8 8 s *.h.g.*.X.X.i i s ",
"2 2 8 8 s s J J J G 2 8 8 8 2 2 2 k x M m m W W 9.s.a.a.a.e.5.E 8 2 2 8 8 s J o.o.L 8 &.c.B.B.B f f 2 2 8 8 i *.-.X.N ..X.i 8 8 ",
"2 8 8 2 2 8 s s s 8 o 2 2 2 2 j k b M b M M M p M m 6.M.V.M.N.p.q.3.8 2 8 J $.L s s s j././.B.B f f 8 2 2 i L ....i X.*.N i s 8 ",
"2 2 2 8 s 8 2 2 8 2 o o . o j k k k k 8 8 ; ; 8 s f m 3.p.Z.m.N.N.q.4.s 8 8 s 8 8 8 G k.B./.B.B f f 8 o 8 L i i s i X.i 8 8 8 2 ",
"2 2 8 s J J s 8 o o 5 2 o j k k k $ . .   . 2 l l 8 s f C q.N.p.p.>.@.@.s 2 8 s s 8 J m.B.B.B.B a f p o 2 2 2 8 , 8 , 2 8 . & 2 ",
"2 8 s s 8 s s s 8 2 2 o j k k 2 . . . . . l x l l 5 8 s B f q.p.q.;.@.B f 8 8 L J 8 +.j.k.k.n.f a f p o 2 . 2 2 2 2 $ $ $ . $ . ",
"2 2 8 8 8 2 2 8 2 2 2 2 2 j j . . . $ . j j 2 8 M m s 8 p f f 4.4.B B f J +.s s s +.>.j.j.j.w.f a f a 8 2 2 8 s s , 2 2 $ 2 2 . ",
". . 2 8 2 2 $ 2 2 8 s s 8 8 $ $ . . $ j j + j k M k 8 2 2 s s s f s J ..O.o.J 8 s ,.j.n.n.B.n.4.C C f f 8 2 8 8 < < 2 2 2 2 . . ",
"2 $ 2 2 . $ 2 2 2 8 M m m M 8 $ $ $ $ $ j c c l j j j j 2 8 s 8 s o.O.1.1.$.G 8 s 0.;.;.;.>.>.f p p p a 8 . 2 2 , , 2 2 s 8 . . ",
"2 2 8 $ $ $ 8 M M 8 8 k 8 8 8 $ . $ $ $ j c R R c c + j m 3.C s L o...O.+.s 8 2 s @.;.;.;.;.@.p p p p p 8 . . . , , s < s , . . ",
"p 8 p b 8 $ k 8 b 2 . $ $ $ $ . . . . + j c v v c c j p m m f s L s s A 8 8 s +.@.@.@.@.+.B f 8 8 8 8 8 8 8 2 2 s A s L s s . . ",
"k 8 2 2 2 . . . $ o . $ $ $ $ . . . . + j l l l l k m f f p 8 8 8 2 8 , 8 8 B @.@.;.q.w.w.w.@.f p p 8 8 8 ; $ . 2 s L s s , , 2 ",
". $ . . $ . . $ 2 o o o 2 2 $ $ . . . o j j l j j 8 8 8 p 8 $ $ , 8 < < < 8 p f f f B V @.;.B p 8 ; ; $ $ $ 8 s A < < < , < 8 . ",
". . 2 2 . . $ 2 . + + + j 2 2 $ . . . . . 2 2 j j 2 2 8 ; $ 8 f +.@.+.L s s f f i i N N N B p ; 8 s 8 2 2 2 2 , < s < , 8 < , 2 ",
"2 . . 8 . 8 2 O + 2 + j j j 2 2 2 2 2 o 2 2 2 2 2 2 2 $ $ m 4.4.w.0.@.......O...L s i i i B s < s L s < < L i 8 < , , , , , 2 2 ",
"2 8 . 8 8 8 o 8 s 2 + j j l l j 2 2 2 2 2 2 2 2 2 2 2 2 8 f f f B B B i >.,.2.1.O.L i L O.O.s L L s s X.*.1.g.*.L , , 8 8 , o . ",
". . 2 2 8 2 2 8 2 + + j l l l l l l x 8 8 8 8 8 8 8 8 8 8 8 $ ; ; p a V v.n.n.,.;...L O.O...L s s s O.*.l.*.X.O.s < s ..L A 8 , ",
"2 2 2 , 2 o 2 8 s 8 o 2 l x E c c v x x x E s s M s 8 8 8 8 8 8 2 $ ; B @.;.;.V @.,.,.*...L L < s *.g.g.*.*.O.L , s ....s 8 < 8 ",
". 2 < , . o 8 2 2 o o 5 8 s J c Y R R R ~ ~ E E E x x 8 2 2 2 8 8 $ 2 8 8 8 p V w.v.v.:.;.@.N s 8 ........X...s 8 , s < < , . , ",
". . . , . 2 o 2 2 o 2 5 s s G G I E R ` ' ' ^ ^ ~ R R x x x 2 8 8 2 $ 8 8 $ 2 p a B a B V a B @.B i s s O.i 8 , , . & , . . . . ",
". . . . . . . o , 8 o , < 8 8 A 8 c R ~ E ! / ' ^ ~ R R Y x 8 2 2 2 2 2 8 8 8 8 8 8 ; 8 p B w.w.;...i s y , , , 8 , , 2 . . . . ",
". o , , . . . . X . . , < < 2 5 G E x J $.o.! ^ ^ ^ ^ ~ ~ R x l 5 2 o 2 2 2 8 8 p p 8 8 V ;.@.+.N f i f p ; $ 8 s 8 8 8 . 2 . . ",
". , , . . . . , 2 . . , . . < 2 2 8 5 s A L 8 G $.! ~ ~ ~ R R x l j 2 2 2 2 2 8 y i a p a a f a p a p p ; 8 y < < < , , 2 . . . ",
". . . . . . , < , , . . . o , , 2 8 8 2 2 2 s L o.L G R R R R l l l l j 2 2 2 8 p f i p p 8 8 $ $ ; $ $ $ p s s < , , , 2 2 . . ",
"X . . . . . . , . . . . . , , , 8 s A s 2 2 8 < s 8 8 8 G G Y c c l l l 8 8 8 8 f N ..N i p 8 2 $ $ $ . p f p p 8 8 , , $ & & , ",
". 2 , . . . . X . . . , , . . , 2 < < < , 8 8 2 2 2 < 8 s s 5 l l c l l 5 8 8 s f X.X.X.N f s 8 2 $ $ 2 8 8 p 8 8 $ 8 8 2 8 8 8 ",
"2 2 . . . . , . . . . . , . . . . 2 , 2 , s < 8 . . 2 2 , 2 2 8 8 l l l l l x s f +.@.@.+.i s 8 2 2 2 2 8 2 2 2 $ . $ $ 2 8 $ $ ",
". . . . . . . . . . . . . . . . . . . . o , , 2 . . . . o 2 2 8 2 l c v x x x s J +.>.>.X...f 8 8 2 2 2 2 2 8 $ . . . . . $ . $ "
};
