/* XPM */
static char *chihiro1[] = {
/* columns rows colors chars-per-pixel */
"64 64 236 2 ",
"   c #0D0E08",
".  c #0D0D07",
"X  c #130F06",
"o  c #120F07",
"O  c #0D120D",
"+  c #151007",
"@  c #1B1206",
"#  c #14130B",
"$  c #1B150A",
"%  c #1C190E",
"&  c #16180E",
"*  c #0D1814",
"=  c #121711",
"-  c #151A13",
";  c #1B1C13",
":  c #151D1A",
">  c #191F19",
",  c #231306",
"<  c #2B1607",
"1  c #221609",
"2  c #2A1708",
"3  c #231A0C",
"4  c #2C1C0B",
"5  c #331D0A",
"6  c #3B1E09",
"7  c #301707",
"8  c #221E12",
"9  c #291F10",
"0  c #1E2016",
"q  c #17201D",
"w  c #1D221B",
"e  c #1D2B1E",
"r  c #2D210F",
"t  c #34220D",
"y  c #3C230D",
"u  c #3E280F",
"i  c #232114",
"p  c #2B2313",
"a  c #23241B",
"s  c #2B261A",
"d  c #242A1E",
"f  c #2D291C",
"g  c #2E2817",
"h  c #332512",
"j  c #3B2611",
"k  c #352915",
"l  c #3B2A13",
"z  c #342519",
"x  c #322B1C",
"c  c #3B2D1B",
"v  c #3D301E",
"b  c #2F301E",
"n  c #171F20",
"m  c #1D2523",
"M  c #1E2A2B",
"N  c #1E2824",
"B  c #1E2C31",
"V  c #222721",
"C  c #252A23",
"Z  c #2C2C23",
"A  c #232D2B",
"S  c #2B2E2A",
"D  c #22272C",
"F  c #322E23",
"G  c #3A2E22",
"H  c #2B3123",
"J  c #2A3A26",
"K  c #25312D",
"L  c #2D312C",
"P  c #293526",
"I  c #343125",
"U  c #3B3324",
"Y  c #33332C",
"T  c #3B342B",
"R  c #232F32",
"E  c #2E2D30",
"W  c #253333",
"Q  c #2C3433",
"!  c #25343A",
"~  c #2C353A",
"^  c #2B393D",
"/  c #29393A",
"(  c #323532",
")  c #3C3534",
"_  c #3A3A34",
"`  c #313639",
"'  c #343A3B",
"]  c #3D3C3D",
"[  c #363638",
"{  c #401E09",
"}  c #43230C",
"|  c #4B240B",
" . c #43290E",
".. c #4C2A0E",
"X. c #54230A",
"o. c #532B0D",
"O. c #5A2C0D",
"+. c #5D270C",
"@. c #5A310F",
"#. c #442C12",
"$. c #4A2E11",
"%. c #442913",
"&. c #592C14",
"*. c #4C3114",
"=. c #45331C",
"-. c #4B341B",
";. c #453016",
":. c #533213",
">. c #5C3511",
",. c #52351B",
"<. c #5D391B",
"1. c #622B0D",
"2. c #6B2B0C",
"3. c #63260C",
"4. c #772A0D",
"5. c #64330E",
"6. c #6C330D",
"7. c #6B380F",
"8. c #73330E",
"9. c #78380E",
"0. c #643512",
"q. c #6C3C11",
"w. c #6C3A1B",
"e. c #663816",
"r. c #733D12",
"t. c #7B3C11",
"y. c #763816",
"u. c #692D10",
"i. c #453323",
"p. c #4A3624",
"a. c #44332B",
"s. c #4A3628",
"d. c #563926",
"f. c #423B3C",
"g. c #483935",
"h. c #553D37",
"j. c #442F26",
"k. c #744112",
"l. c #7C4413",
"z. c #7A411C",
"x. c #57423D",
"c. c #4C403C",
"v. c #614237",
"b. c #2C3B43",
"n. c #273A41",
"m. c #333C44",
"M. c #3B3E43",
"N. c #343E49",
"B. c #3E3B4B",
"V. c #3E3F54",
"C. c #473C41",
"Z. c #423F53",
"A. c #513E42",
"S. c #3C4147",
"D. c #3F4055",
"F. c #44434B",
"G. c #4B454B",
"H. c #474244",
"J. c #584449",
"K. c #444155",
"L. c #4B4355",
"P. c #444259",
"I. c #534554",
"U. c #5B4652",
"Y. c #5C4856",
"T. c #5B4958",
"R. c #544854",
"E. c #6C494E",
"W. c #68494A",
"Q. c #744B4C",
"!. c #7B4D4D",
"~. c #614751",
"^. c #634A55",
"/. c #6B4C54",
"(. c #644C58",
"). c #6A4D5A",
"_. c #734E53",
"`. c #744F56",
"'. c #745057",
"]. c #7C5253",
"[. c #76525A",
"{. c #7F555B",
"}. c #79504E",
"|. c #8A2E0C",
" X c #8C330E",
".X c #82350E",
"XX c #95320D",
"oX c #9A370E",
"OX c #973A10",
"+X c #8D3C14",
"@X c #A6360D",
"#X c #B43A0E",
"$X c #BC3C0E",
"%X c #B2360D",
"&X c #B83E10",
"*X c #C33E0E",
"=X c #CC3E0E",
"-X c #8A430F",
";X c #99490F",
":X c #834412",
">X c #874517",
",X c #954914",
"<X c #995216",
"1X c #A94712",
"2X c #BE4511",
"3X c #B24611",
"4X c #AC5113",
"5X c #B1621E",
"6X c #C4410F",
"7X c #CC430F",
"8X c #D1450F",
"9X c #D4490F",
"0X c #CC4610",
"qX c #CC4A11",
"wX c #C34911",
"eX c #D34B11",
"rX c #D64A10",
"tX c #CB5313",
"yX c #D65212",
"uX c #DA5613",
"iX c #DE6618",
"pX c #CD681C",
"aX c #E56618",
"sX c #D27A25",
"dX c #E77C21",
"fX c #EE5D15",
"gX c #83524D",
"hX c #8B544B",
"jX c #845453",
"kX c #8A5654",
"lX c #8F5856",
"zX c #8C5958",
"xX c #945954",
"cX c #93554A",
"vX c #A66156",
"bX c #ED8423",
/* pixels */
"+ o # O = : w F - + + 1 $ # D I.I.I.I.U.U.L.Z.Z.K.K.K.Z.Z.Z.K.K.K.K.K.D.K.K.K.V.V.V.V.D.K.K.K.Z.K.K.K.Z.L.) O $ .   o . # . $ 1 ",
"o , , @ 1 O - F s $ @ 1 1 # : B.I.L.U.I.L.K.Z.Z.K.K.K.K.Z.K.K.K.K.K.L.L.L.I.L.K.K.K.K.K.K.K.K.K.K.L.L.I.C.: # $ . o . . # $ < p ",
"@ @ < @ , $ - F z 8 $ $ $ $ O ~ P.K.K.K.K.K.L.L.L.I.L.K.K.I.U.I.L.I.U.I.L.L.L.L.K.K.K.K.L.L.K.K.I.U.U./.) O #   # o o # # < r 8 ",
"o o @ , @ 1 = - s s 1 $ 1 $ # n Z.K.K.K.K.L.I.L.L.I.U.E.E.Q.~.U.I.L.L.L.L.L.L.K.K.L.L.L.L.^.U.E.E.E.U.U.m # $ # #   O # 1 r r - ",
"@ , @ , < @ 1 = s x p # $ $ $ = ` I.L.L.L.L.I.I.I.~.E.Q.!.!.^.I.I.I.R.I.I.I.I.I.L.I.^.E.^./.^.Y.Y.Y.T.A = $   # # # % $ p t 1 % ",
"o o @ , , < @ $ > a s 8 $ $ $ $ : U.U.E.U.~./.^.I.I.I.I.Y.Y.I.U.Y.T.U.Y.Y.~.~.U.^.^.Q.!._.(.Y.T.T.T.J.: # # # o # % $ % t < % y ",
"@ o @ @ + , < 1 - w s 9 h $ % $ = ) _.E.U.^.Q.^.Y.Y.R.Y.Y.Y.Y.Y.Y.U.Y U.(.I.Y.Y.Y.^.^.(.(.(.Y.Y.Y.(.A = # O O   # $ 1 % t 1 < 5.",
"@ @ @ @ , , 7 < < 8 $ 8 h 1 1 % $ > J.^././.!.Q.!.!.^./.^.Y.^./.).C.d f.).Y.^.^./.^.(.(.(.^.).).`.f.: # # #   # # < < 1 < y | ..",
"1 , , @ @ < 7 6 $ # # - - - < 1 - = S ).Q.hX!.!.Q./.^.^.^././._.G.K A K G.)._.!.]._._._./.`.H.C.) : = # # O # # 1 j < 1 7 1.| o.",
"< 7 , < 1 < 7 { X.3.|.4.3.| t 1 1 % - f.)././.^.^.(./././._.`.H.C x k x A H.jXjX[.'.[.'.).[.) * : - # # O # # $ h j p 1 X.o.y y ",
"< | 6 1 < 1 X.oX%X*X8X8X*X@XXX| 1 8 - w C.U./.^./._._._./.U.f.A Z U p.U L K C.U.'.[.[.[._.[.U.: : - # O   # $ p h j h 1 y O.< = ",
"< y | 6 1 | %X$X$XrXuXyXrX$X*X@X7 - - - : ` _._._.'.f.` ` A A L L K K K L L L K ` ` C.{.].jXh.* - # # # O # 1 h - j t 1 | 7 O # ",
"t O.y y 7 |.=X$X0XaXaXaXrX6X$X8X4.- - % - A.'._._.].E.a s s h z h z z z z z z z s C E.{.].kXY = = = O O # $ < p 7 #.j < i - , , ",
"t 1.2.t | %X7X7XwX4XdX4X0XrX6XrX#X< - - - J.jXgXhXgXjXh.s &.e.r.w.w.w.w.w.w.e.:.z h.kXhXkXQ.w - = # $ # = 1 9 h t #.t - * # < , ",
"t | O.o.| $X7X9XtX>XbXr.4XfX0XyX0X..# % - T jX].gXjXjXkXs.&.w.:Xw.z.z.+Xw.z.w.:.a.jXxXcXlXh.* - = # - - = 1 h h h j % # # 7 , o ",
"y 1...| +.*X9X0X4XdX5Xq.r.1X0XyXrX&.- - - V gXhXjXkXxXW.L Z I I U F A F Y Y Y L Y }.kXkXkXZ = - # - - > - 8 p  .p - # 1 7 < o + ",
"y 6.6.y 1.7XrX0X>XsX<X>Xl.e.yXuXrX1.- - 8 - v.xXhXQ.c.K W Q Q Q K Z k Z K Q ` Q W Q H.gXQ.- - - - - - w - 8 h h $ # 2 < + @ @ + ",
"< | 6.O.2.7X9XrXaXsX<Xl.r.r.rXuXrXu.8 8 - - Z kXlXx.N Z Z Z Z C Z U s.G Z C Z Z Z Z C ].g.- - - - - p w - 8 8 - $ < < o o + @ @ ",
"- < | ..2.7XrXrX1X5X<X>X>Xr.rXyX8X2.i 8 - - - x.xXlXh.=.,.,.-.f e.+Xt.t.,.Z -.-.-.x W.}.: - - - - | j w - - # # < , @ @ + , < 7 ",
"- - < t 2.7X9X0Xt.pX>X>Xe.8.rXrX0X2.p p i - - Z kXzXgXd.<.<.<.x <.w.s.w.d.G <.w.w.d.].S - - - - y o.p w - - 1 2 @ @ $ $ @ 7 7 6 ",
"1 - w 1 1.7X8X7XuXaXaXaXrX6X7XrX7X1.s p p - - w J.vXhXa.a.a.j.F C C Z K Y a.a.a.a.h.f.- - - - h | o.l - & % 1 $ @ $ @ 2 < 6 6 6 ",
"$ # - - ..6X8X6XrXuXuXyX8X7X6XrX*Xo.s j i i - > C W.}.s.a.T G A C -.<.k K Y a.g.h.g.m - - - - j ..$.> % < $ + + $ $ < 6 7 6 < 1 ",
"1 1 1 < h #X8X$X7XrXrXrX7X$X6X7X#X .s l h a > w a H./.T K K M C L Q L L L K T ) g.m : - - w w j #.- # 1 $ $ # $ $ < y y < < 1 < ",
"# < 7 1 1  X7X$X6X0X0X0X0X$X7X7XXXh z j h a w Q ].^.] T F Y F Z U a.a.s.T T ) W Q : > - - w a h - % 1 $ # # $ 1 < 7 7 # # < 6 | ",
"# $ < 7 < | #X*X#X7X8X7X6X#X6X*X1.h z $.l a a K ] ' ` ) d.d.s.T a.s.s.s.T ) Q W A > w - : w w - 1 1 # $ $ 1 < 7 7 7 X.4.|.4.X.y ",
"$ $ # $ < < X.oX@XXXoXoXoX$X$X4.k p s h k a a m m Q M.f.] [ ) T ` ` ` ` ` ` W Q m : w w > w - 1 $ $ # 1 < < 7 < 1 2.%X*X=X#XXX{ ",
"1 # $ $ $ < 1 6 y & 0 s 9 1.&.p s p p s a s a q m m A ` ] Q ` Q Q W W Q Q W W A w w w a : - 1 1 # $ 1 7 7 < < < | @X@X3X1X#X*X2.",
"7 < 1 $ 1 $ $ 1 % 1 h k % - i a a i 8 a s f a w w w : C ^ / ^ ^ Q ` ` ` ` W ! m q w a w - 1 $ # $ < 7 t 1 1 y y +.#X1Xt.r.wX0X4.",
"< < 7 < 1 # $ 1 1 1 < 7 < i w w 0 w w w w f a w w : : : ! b.^ m.) s.d.[ ! ^ W m w s x - % - $ $ < t r +.|.XX|.t O.7XoX,Xl.1XrX.X",
"7 < < 7 1 $ 1 $ $ # $ 1 < < 8 - : > w w w w a w w w w : M m.b.^ ^ ^ ' ] ^ b.M m w x k w w - % < 1 1 | #X2X2X*X2.O.0X+X<X>X1XrX.X",
"| y y 6 1 1 1 1 % % % % $ $ < 1 - - : - - - : w V w w m m W b.b.b.b.n.M.m.b.b.A a x s w - - i | | r 2.2Xr.,XrX.X| 6X2XtX,X3X0X1.",
"< 7 y | 1 < 7 y < 1 % - 8 1 $ $ 1 1 - - - - - : m s s w m B b.b.b.b.b.b.b.b.R m Z C : - - - 1.#X$X4.8.2X,X>X0X X| @X6X7XrX6X@X| ",
"t r r t 1 < y O.o.| t 1 8 % % $ $ 1 1 - - % 8 - : V x V M ! b.m.b.b.b.b.b.B m V Z > - - - a XXyXuXoX8.2X,X>X0X.Xy o.XX X X Xo.| ",
"X.| | | t < t y o.O.O...t 1 p # & - - - - - - - 8 w a C M B ~ N.m.m.M.N.~ M M m w - - - 8 p oXaXbX1XO.6X0X6X6XO.< t t % % < y y ",
"| | | | 6 t t - 8 p y O.| < p % 1 i 0 w - 8 i 8 - 8 w m A B B b.N.b.b.b.B M m w - - : i p a OXuXaX1X .4..X.X1.< t y y t r r < < ",
"2. X|.X.| y r 1 8 i i i p i p - y t - - w w a i i - 8 a A R R ! N.b.n.n.! A a - > w a a s s &.oXoXO.r y i % 1 t t y  ...h 1 r t ",
"#X6X7X@XO.t p t < < < p i i r i p < t y y s m m w w a A ~ Q ! N.N.n./ b.~ Q A w a a a a a a f p i r r #.....r t 6.-X;X;Xl 1 O.8.",
"0XiXaX2X2.h k 8...t y r 1 i p i 8 | 2.4.| p i a m w A W ~ ~ b.m.b.b.b.b.~ W M m V V a a w w p p 1 i y 5.6.5.r | -X4X4X,Xl r 6..X",
"yXdXbXtX8.h l 1X5.u 6.o.p h i 0 l o.oX7X6.e d w w a C W W ~ b.b.b.m.m.N.~ M m m m a a w w - - 8 i i #.9.9.5.p ..-X;X,X>Xl p 6.8.",
"tXiXaXwX6.h l ;X5.#..X5.r j i 0 l @.1XaXt.d L e w a C Q W R ~ S.S.S.N.b.Q Z C a f p d d d w i i i i l $.:.;.l o.-X;X-Xk.k h ....",
"1X1X@X+X5.j k r.>.#.q.>.p l i w l :.t.1X:.b I L L C W d.d.a.F.F.F.G.F.H.f.T Z f k k f d d a i p a a #.>.q.e.l o.t.>Xl.q.k p 6.9.",
",X7.@.k.O.t k >Xq.#.q.$.h l i w l 7.$.l $.L L L L Z Q g.h.h.G.R.G.R.J.H.x.` I U -.-.Z C d a p l f a $.q.t.q.l O.q.k.k.e.g p 6.t.",
",X<X<Xl.@.t l <Xk.;.;Xr.j l i w h :.$.x :.f f f C L Q Q [ ] G.G.G.R.G.F.M.[ U I ,.-.d w C C g l a f #.$.>.;.l O.r.>Xk.;.p p ..o.",
"<X>Xl.l.O.h l 4Xk.;.>Xe.h l i w k :.#.f ;.:.k x C L Q J J ( G.' H.H.H.H.S.' L I U U d w a C k ;.a f #.>.>.:.l O.r.l.;.;.g i o.e.",
">Xl.e.k...p p k.q.l >.:.h l i w f #.p a ;.-.x Z C Q L J J J F.Q ] H.H.S.S.~ R Y U Y I V C C f k a a $.r.r.e.k o.r.>.l ;.g i 6.t.",
">.k.q.>. .p p :.:.#.t.7.h h i w a a a a i f f Z C Q Q J J ( F.' ] H.H.S.S.~ K S Z C I Y C C V a a a #.#.:.$.k ..q.:.#.:.p i o.5.",
">.@.7.:.y p p >.#.h $.l i p i w 0 a a a w w d Z A A C J J J M.] m.M.M.M.m.~ A L Z C F Y C C w V a w p p r i k ....l #.#.i i p p ",
"$.#.u t t i i p p i i i 8 8 i w 0 w w w w a C C A A C J J C ' ' m.' ' ' ' ` L ` Y Z Z T C a w V w w 0 i i - h  .y t u t i - 1 1 ",
"p p p h h p i 8 1 8 8 i 8 8 0 w 0 0 i - w a C Z S S C J J L ` ' ' ' ` ` ' ` ` ` Q A Z Y Z w w w 8 8 8 8 8 - k  .h p p h 0 - % % ",
"p h h p h h p i - i i i i 8 0 0 - % - - a Z I F Z Y L J J L ` Q Q ~ ~ Q ~ Q Q Q Q R Z Z a w m w - 1 < % % 0 k  .l h k p 0 - 1 % ",
"f p p p p h h 9 - i i i - - - - - - - w Z F F F Y T Y C C Q ` ` ` Q Q Q Q Q Q Q Q R C w m A m w - - % - % 0 h  .l h k k - - - - ",
"a s p p p i - % 8 i 8 i - - - - - - w w Z Z Z Y Y Y L S S ` ` Y ` ` Q Q ` L ` Q L S A C C C A w - 8 - - % - h  .l l l l - - - - ",
"- a a - % $ % i i - - i - - - > w m V V C C L L Y Q Q L Y Y ` Q Q Q ` ` ` Y L Y L S S S A V m a w 8 % % % - h y #.:.:.;.0 - 0 0 ",
"& - % 1 $ 1 1 - 8 8 8 i w - a C V C C V C L L L ` Y Y Y L ` ` ` Q L Y ` Y Y Y L Y L Z L Z Z C w C i - w - 0 h y l ;.;.#.0 - 0 - ",
"% $ 1 # # 1 1 - i - - a a s f d V Z V C S S L L Y Y Y Y L L L ` Q Q Q Y Y Y Y T T I I U U F U f a x f f f a k #.#.;.:.#.i - - - ",
"% 1 % $ % % 1 - i a a a f f s Z F a C S S L L S L Y L L L Y Y Y Y L Y Y Y Y Y T U U v v -.=.-.-.l p ;.;.;.:.;.;.:.:.>.$.0 - - - ",
"% 1 1 1 $ % 1 0 w w a d s s f x a C Z Z S L Y Y Y L L ` ` ` ` ` Y L Y Y ` ` Y T I a.a.-.,.-.-.,.;.l p ;.:.:.:.:.$.#.$.p 0 - - - ",
"% 1 % # 1 1 8 - w a f f s x f a d Z Z Y Z I Y Y Y Y Y Y Y Y Y Y Y Y Y Y Y Y Y Y Y U =.=.=.-.=.-.-.-.k p ;.;.$.:.;.l k i - - - - ",
"- 1 1 % < 1 % w a s s i f x a a F F I I F Y Y Y Y Y Y Y Y Y Y ` Y Y Y Y Y I Y T T U U v v =.a.=.=.=.k x i l ;.k k k f 0 - - w w ",
"- 1 1 1 1 $ % i s s s x f w a x F I F F I F I Y Y Y Z I Y Y Y Y L Y ` ` Y L Y I U U U U U v k v =.v x x a 0 f x x f Z a - - - 0 ",
"- 1 1 1 & - - a i i x f w s x x U I I I F I Y Y Y Y Y Y Z Y Y L Z Y Y Y Y Y Y Y I U U U U T I f I F I F x a a x Z a a V w w - - ",
"- 1 % - - a a a a s f 0 w s f x x x x F f F I I F I Y I Z Y Y Y Y Y Y I Z F I F F U U U I F F f Z F F Z f f w w d C a w a w w - ",
"- - - w a a - i f f i a F F F f Z F I I I I I F Z I Z Z Y Y Y Y Y Y ` ` Y Z Y Y T Y I I I Z Y Y Y I F f f Z C w w a a a w w w w ",
"- - w a a a a s f w w f F F Z f F F I I I I I Y Z I L Z I Y Y ` Y Y Y Y Y Y ` Y T T Y Y Y F I I F I I F f Z Z C w w Z C m w w w "
};
