/* XPM */
static char *chihiro2[] = {
/* columns rows colors chars-per-pixel */
"64 64 235 2 ",
"   c #14180F",
".  c #11160D",
"X  c #161911",
"o  c #1A1D14",
"O  c #0E140C",
"+  c #1E2016",
"@  c #16271E",
"#  c #1A251D",
"$  c #16291F",
"%  c #1A2A1E",
"&  c #212217",
"*  c #2D2B17",
"=  c #252519",
"-  c #242C1C",
";  c #2B2B1B",
":  c #292815",
">  c #342B16",
",  c #3C2C14",
"<  c #392718",
"1  c #342E1A",
"2  c #3B2B1A",
"3  c #352716",
"4  c #2C321C",
"5  c #353116",
"6  c #3D3216",
"7  c #33321B",
"8  c #3B321B",
"9  c #373A1A",
"0  c #192721",
"q  c #172A22",
"w  c #1A2B24",
"e  c #1B2D2B",
"r  c #162720",
"t  c #1E3125",
"y  c #1E342C",
"u  c #1D382F",
"i  c #1C2E35",
"p  c #1D3334",
"a  c #1D3932",
"s  c #1D323B",
"d  c #232E23",
"f  c #2C2E22",
"g  c #242F29",
"h  c #332E22",
"j  c #3B2E22",
"k  c #382E2A",
"l  c #233224",
"z  c #2A3323",
"x  c #22332A",
"c  c #2B332B",
"v  c #293928",
"b  c #333322",
"n  c #3B3523",
"m  c #3E3B25",
"M  c #3A3829",
"N  c #272F37",
"B  c #243134",
"V  c #23323C",
"C  c #233635",
"Z  c #363836",
"A  c #432D14",
"S  c #4B2E15",
"D  c #432C1C",
"F  c #4A2D1C",
"G  c #552F1E",
"H  c #5A2F1C",
"J  c #562F15",
"K  c #443316",
"L  c #4B3315",
"P  c #463816",
"I  c #4C3917",
"U  c #43341A",
"Y  c #4B3519",
"T  c #443B1C",
"R  c #4C3A1A",
"E  c #533215",
"W  c #5B3415",
"Q  c #533A17",
"!  c #5D3A15",
"~  c #54331B",
"^  c #5B311D",
"/  c #533C1B",
"(  c #5D3C1B",
")  c #643515",
"_  c #643A16",
"`  c #6C3C15",
"'  c #63321C",
"]  c #6A331B",
"[  c #633C19",
"{  c #6C3B1A",
"}  c #6A3414",
"|  c #733C15",
" . c #733D1A",
".. c #7A3D1B",
"X. c #763817",
"o. c #472E23",
"O. c #443223",
"+. c #433C23",
"@. c #4B3D22",
"#. c #43332D",
"$. c #4B342C",
"%. c #483A28",
"&. c #553223",
"*. c #5C3323",
"=. c #53372D",
"-. c #5C362C",
";. c #5E392C",
":. c #563B23",
">. c #463430",
",. c #453932",
"<. c #583830",
"1. c #633A2E",
"2. c #683C2F",
"3. c #673922",
"4. c #7A3B23",
"5. c #653B30",
"6. c #6A3D31",
"7. c #3C421B",
"8. c #3D4421",
"9. c #3E4B22",
"0. c #3D422D",
"q. c #3C4433",
"w. c #3A4438",
"e. c #4D431B",
"r. c #45461D",
"t. c #54431D",
"y. c #5C431D",
"u. c #554B1D",
"i. c #59491B",
"p. c #4A531E",
"a. c #56571C",
"s. c #64431B",
"d. c #6B421B",
"f. c #604A1B",
"g. c #694819",
"h. c #754216",
"j. c #73441C",
"k. c #7B441B",
"l. c #7B4719",
"z. c #7A541E",
"x. c #605C16",
"c. c #454323",
"v. c #4C4324",
"b. c #424E22",
"n. c #45442B",
"m. c #4B442B",
"M. c #4B4A29",
"N. c #534422",
"B. c #524923",
"V. c #5B4824",
"C. c #53452A",
"Z. c #594729",
"A. c #435022",
"S. c #434A35",
"D. c #484835",
"F. c #544C35",
"G. c #5C5235",
"H. c #5D5438",
"J. c #57513E",
"K. c #684828",
"L. c #764A27",
"P. c #6A512B",
"I. c #75542B",
"U. c #7A562B",
"Y. c #634D34",
"T. c #655637",
"R. c #785C39",
"E. c #7A633D",
"W. c #1C2F47",
"Q. c #1D3144",
"!. c #1D324B",
"~. c #1C3450",
"^. c #213444",
"/. c #253946",
"(. c #20374D",
"). c #21354D",
"_. c #253A49",
"`. c #243B4E",
"'. c #213650",
"]. c #263E51",
"[. c #243B52",
"{. c #3A3D42",
"}. c #3E4141",
"|. c #274056",
" X c #284155",
".X c #29445A",
"XX c #274259",
"oX c #414444",
"OX c #6A5943",
"+X c #7B6645",
"@X c #6C6041",
"#X c #863D1A",
"$X c #843D21",
"%X c #8A441A",
"&X c #874917",
"*X c #89551C",
"=X c #955919",
"-X c #9A5819",
";X c #954918",
":X c #B34C1A",
">X c #B84818",
",X c #B9531C",
"<X c #A94C1B",
"1X c #9F611F",
"2X c #884725",
"3X c #984522",
"4X c #855929",
"5X c #945827",
"6X c #865E32",
"7X c #A34722",
"8X c #8F612F",
"9X c #97632A",
"0X c #896437",
"qX c #946532",
"wX c #9D6A34",
"eX c #976A37",
"rX c #A46E36",
"tX c #AA6F31",
"yX c #AB7237",
"uX c #B86823",
"iX c #A9661F",
"pX c #C14F1B",
"aX c #C35D20",
"sX c #C56624",
"dX c #CF752B",
"fX c #846B44",
"gX c #8A6E44",
"hX c #8C7349",
"jX c #97794C",
"kX c #987B51",
"lX c #926F41",
"zX c #D88836",
"xX c #A88956",
"cX c #B1905B",
"vX c #9F8152",
/* pixels */
"!.!.!.!.!.!.!.!.!.!.!.!.!.!.!.!.!.!.!.!.!.!.!.!.!.!.!.!.!.!.W.!.!.!.!.!.!.!.!.!.!.!.!.!.!.!.!.!.!.!.!.!.!.!.!.!.!.!.!.!.!.!.!.!.",
"!.!.!.!.!.!.!.!.!.!.!.!.!.!.!.!.!.!.!.!.!.!.!.!.!.!.!.!.!.!.W.Q.!.!.!.!.!.!.!.!.!.!.!.!.!.!.!.!.!.!.!.!.!.!.!.!.!.!.!.!.!.!.!.!.",
"!.!.!.!.!.!.!.!.!.!.!.!.!.!.!.!.!.!.!.!.!.!.!.!.!.!.!.!.!.!.c c !.!.!.!.!.!.!.!.!.!.!.!.!.!.!.!.!.!.!.!.!.!.W.W.!.!.!.!.!.!.!.!.",
"!.!.!.!.!.!.!.!.!.!.'.!.!.!.!.!.!.!.!.!.!.!.!.!.!.!.!.!.!.c P P c !.!.!.!.!.!.!.!.!.!.!.!.!.!.!.!.!.!.!.!.!.!.!.'.'.'.!.!.!.!.!.",
"!.!.!.!.!.!.!.W.!..X.XXX!.!.!.!.!.!.!.!.!.!.!.!.!.!.Q.W.B 7 v v 7 B !.!.!.!.!.!.!.!.!.!.!.!.!.(.'.|.(.!.W.!.|.|.|. X X'.!.!.!.!.",
"!.!.!.!.'.XX'.'.'..X X.X(.!.!.!.!.!.!.!.!.!.!.!.!.!.!.W.x v v v x x Q.!.!.!.!.!.!.!.!.!.!.!.!.XX.X.X.X'.(.|.|._.'.|.|.'.!.!.!.!.",
"!.!.!.'.|.|.'.'..X X'.|.'.'.'.!.!.!.!.!.!.!.!.!.!.!.s x 7 6 P P > v p Q.!.!.!.!.!.!.!.!.!.!.!.|..X.X'.|.'._._._._._.'.'.!.!.!.!.",
"!.!.!.'..X'._._._._._._.'.|.'.!.V V !.!.!.!.!.!.Q.s v 6 P t.f.y.Q 6 7 x s !.!.!.!.!.!.!.B Q.!.!.(._._.'._./.^.^._._._.(.Q.!.!.!.",
"!.!.!.(.|._._././././._._. X'.V 7 1 V !.Q.Q.Q.i y l 7 7 T T T T T T 1 7 l p s Q.!.!.W.f 4 c ^.!.(.|.|._._._./._._.(.Q.!.(.!.!.!.",
"!.!.'. X X_._././././._. X|.'.Q.1 6 7 l l y l t x x x y y y y y y y x x x x y y x x l 4 > c !.!.'.'.'._.!._._._.(.Q._._._._.!.!.",
"!.!.!.'.'.(._._._._._._.'.(.!.~.V 2 < A 2 < < 8 8 8 8 8 < 8 8 8 8 8 8 8 8 8 8 8 8 < < < < ^.!.!.!.!.!.!.!.(.(.Q.Q.!._._.(.(.!.!.",
"!.!.!.!.!.'.'.'._._._.!.!.(.!.!.~.N 2 < < < < < < < < < < < < < 2 3 < 2 < < < < < < < < V !.!.!.!.!.!.!.!.!.!.!.!.!.!.!.!.!.!.!.",
"!.!.!.!.!.'.'.'.'._.(.'.'.'.'.!.!.!.k A D F S S S S D S E E E E E E E F S F S S F < A N !.(.!.!.!.(.!.!.!.!.!.Q.s Q.Q.!.!.!.!.!.",
"!.!.!.!.!.!.!.!.(.!.'. X X X'.'.(.!.(.j A W | W ` | L l.l.&X&X&X&X&Xl.W &X) ` | ~ A k !.(.!.!.(.'.!.!.!.!.!.Q.e q q q e s Q.!.!.",
"!.!.!.!.!.!.!.!.!.!.'.'.'.'.(.'.(.(.(.V j ` -Xh.&X&X~ =X1XiXt.z.uX9X5X[ -Xk.*X;XW h (.(.(.(.(.(.(.!.(.!.!.Q.w w q q q $ q w Q.!.",
"(.!.!.!.!.!.(.!.!.(.!.!.!.(.!.!.!.(.(.c h W ` E ! ! L _ ! m v v t.h.f.~ ` W _ _ L h V !.(.(.(.(.!.(.(.!.(.e q w q q q q q $ e !.",
"(.(.(.(.(.(.!.(.(.(.(.(.(.(.(.(.(.(.(.v 7 8 8 8 8 8 7 8 v l 7 4 v 8 8 8 U 8 8 8 7 7 B '.(.(.(.(.(.(.(.(.s q q q q q q q q @ i !.",
"i (.(.(.(.(.(.s e i (.'.(.(.'.'.(.(.s y x u y y y y y l 4 9 7.7.9 4 l y y y y y u y p ^.(.(.'.(.(.(.(.'.s $ $ @ @ @ @ @ @ @ q e ",
"# e ^.'.(.Q.s w q w e s (.(.^.s s p a a a a a a x l l 4 4 9 9 9 9 4 4 l l x a C a a a a p Q.V (.(.(.^.s s w @ $ @ @ @ q q r @ @ ",
"w # w ^.'.e $ w q q q w Q.'.V * 4 4 4 4 v v v 4 7 ; 4 8 U U U D D U 7 : 5 ; 4 4 4 4 4 4 4 7 c (.(.(.e q q q q q q q q q q q r r ",
"e e # 0 i e w w w w w w ^.'.'.V 2 A D D F F D D < ; 4 Q h.h.h.h.h.| 8 - 1 < < D D D < < 2 h (.'.^.w w q q q q q q q q q r r r q ",
"e e e w # w w w w q w e s (.'.'.V D W _ ` ` _ W F D 4 s.=X=X=X=X-X*X8 1 F W ) ~ W W ~ F k (.(.(.e w w q q w q q q q q q q r q q ",
"e e i e w # w w w w w w q e (._.'.Z h.=X=X-X-Xh.D D 7 P g.s.s.s.l.f.7 1 F h.&X) O.U _ &.(.'.'.(.e w w $ q w q @ @ @ q q q q q w ",
"4 4 w e e w 0 # w w w w w % s '.'.Z [ d.d.h.h.3.D 7 8 5 4 l t t 4 7 8 7 U [ ` U l t l h p V _.'.p w w w q q @ @ @ r q q q q w w ",
"P P w e e e w w w # w w w w V '.^.k &.&.*.*.*.*.O.7 7 v v 7 7 7 v v 7 5 U &.b t l l t t w e (.p w w % w w q q q q q q w 0 0 0 0 ",
"2 > * e e e e w e w % w w e y y t t l v v o.*.&.o.h x v ; ; P 5 : 4 l - o.h l l d d d w w w p w w w w w w w q q w w w 0 # 0 w e ",
"2 2 2 1 7 8 w e e e w w w t t t t l t t t b &.b b v 4 ; 7 7 5 5 7 ; * l c v d - - - - w t w w w w w w w w w w w 0 0 0 w e e e e ",
"2 L A 2 2 P * e e e e e d l t d l l l l l l o.8 4 4 : * * 1 7 7 * * : * 4 4 h d t t l x t t w w w w w w w 0 0 # 0 w e e e e e w ",
"A 2 : > 2 2 2 * 8 v e e e x l l l l l - d v b j * - - % w w w w w % - - * f d d l l l l t w w w w w w w 0 0 w w e e e e e e w e ",
"2 2 2 2 A A 2 2 2 > w d g e x l l l l l l l l d h 1 4 > P P P P P 6 ; 7 f y t l l l v l l l t w t w w w e e e e e e e e e w e w ",
"L L P A 2 3 > A A 2 > 6 7 e g x d 1 1 * 1 1 h h j j 8 L W ! ! W E E 8 U h h h j o.j < 1 v l x x l g e y y e e e e e e e e d d w ",
"A E E E > 2 A S 2 2 A A A 7 U d x v < F F F F F D D D D D D < < D D D D F F F D o.o.< 2 7 v v c x B x x x x x x g e d l - 4 ; * ",
"S S E W S S L A 2 2 A 2 2 S A < 8 8 y b F H H H H H H H W H G G H G H H H W G &.&.D A E 2 7 c c w # + X X + d v 4 - * > > 2 > 2 ",
"L E W 2 2 A E E S A 2 2 A S 2 A A A 8 8 1 ) ) ) ' ' ' ) ) H 3.3.H H G G &.&.&.&.) W A | ) A 8 m G.C.X       X ; 6 2 2 2 > 3 2 2 ",
"e.Q | #X;X#XX.W S S E A A 2 A A 2 2 A W ) ) ) ) ) ) W H W W W W &.W *.*.*.*.G S ) E A | | ) E hXcXcXH.X       X 2 > > 2 > ; > 2 ",
"e.l.>X>XpXpX:X#XP U U A L E E ) J S E X.X.X.] ] ] ] ] ] ] ) ] ] ] ) ] ) ] ` W L A 2 A E _ | I.xXxXfX@Xn O X     = 2 2 2 2 2 2 2 ",
"t.<X>X,XsXaX:X<X@.M n A E W } X...| ` ....`  . . .`  . . .`  .h.` ` h.h.[ _ ` ) _ L A P 2 L R.kXxXfXOXG.        X 2 A S S S S S ",
"f.:X,XsXzXdX,X:XZ.,.L A W ) | l.k.| ` k.k._ h.l.k. .h.l.l.d.l.l.l.d.h.h.K.[ [ _ _ _ P ) W ~ fXvXxXE.H.R.X       X 3 W J W W ] ` ",
"f.:X,XsXzXdX:X:XZ.:.) A ! _ W ;Xh.E ` T T ` ! T t.%X/ v.y. .e.v.4Xd.T V.K.[ [ ` / / U T / V.+.hXcXv.m.@XX         = ` k.X.] X.k.",
"i.<X,XuXdXsX:X:XN.:.W A ! ) ) &X .E ) T T ` ( 8.N.%Xt.M./  .c.c.4Xd.8.V.L. .` l.` [ L ( ( 3.R.jXcXfXOX@XX           [ 5X#X ...k.",
"i.l.:X:X,X,X:Xk.v.%.+.P ! :.M &XV.L ` v.c./ e.c.N.%Xt.M.N.| v.M.B.v.c.N.h.%X%X%X%X .L ] )  .+XkXcXfXOXR.X       X X U 5X%X%X..k.",
"i.y.l.) E W h.t.v.m.+.P _ @.w.v.0./ | v.M.I.8XI.M.f.B.M.B./ v.v.v.U A A A W ..;X..[ L ( [ W R.kXcXkXOXH.        X X :  .k.k.....",
"i.y.g.T T T B.t.t.v.+.P _ @.q.D.D.m./ n.Y.rXrXtXI.v.C.M.e./ T T U L L 2 3 : > ` m./ U @.f.( T.xXxXxXhXm.  X     X X X ~ ` l.h.d.",
"i.i.g.f.B.B.t.i.f.f.t.P ! @.D.Y.G.q.S.G.E.eXqXrXqXM.M.n.I.U.N.N.U L.qXL.> ; : b w.T U 0.@.y.M.jXC.E.hX*   X   X X   X U z.z.4X*X",
"u.i._ u.B.T r.Y.hXhXfXE.K.+.S.G.G.S.q.G.0XeXeXeXU.n.S.q.P.4XK.N.T U.tX8XL 8 : 7 q.t.T q.0.v.q.Y.xXxXG.X X           X > z.*Xg.f.",
"u.i.[ u.M.m.J.+XlX0XeXlXE.+.w.F.Y.F.}.F.U.qXeXeX8XD.q.C.U.U.P.V.@.qXyXrXU 1 : ; v.t.T C.q.q.S.b n n X X             X + g.g.8 8 ",
"u.i.! N.F.C.%.I.rXqXrXrX4X+.q.H.H.}.oXw.R.0XhX6XgXD.Z C.4XU.K.V.+.K.eX6X1 v : 7 m.t.T P.m.q.q.M = X X X         X X X X T N.C.+.",
"u.i.! u.n T V.qXrX8XrXqXqXn.F.I.K.Y.F.}.OXjXfX0XgXD.Z Z C.K.V.c.+.b N.L.U n.m v.v./ T P.G.D.D.Z * = X X     X X X X X X 1 @.v.+.",
"B.i./ +.#.N.P.eXrXrXqXqXrXV.T d.d.d.d.v.,.fXjXjXE.Z {.q.c.V.+.+.+.c. .2XP.v.m.v.m./ U Y.m.R.hXF.- + X X   X X   X X X X = +.n n ",
"i.e.#.>.=.=.P.qXrXrXrXrXyXK.* 1 1 7 U U Z D.fX+XD.Z n.a.a.u.r.` ( ( 7X4X3X3.F.N.v./ U +.C.0X+XG.* +     X X X X X X X X = n n n ",
"i.%.>.;.2.2.Z.4XrXeX8XeXqXK.O.7 7 8 @.@.Z Z C.V.%.f.x.a.b.b.r.y.` #X3X2X3X4.T.K.! / U U Y.hXfXm.= + X X X X X X X X X X + 7 n n ",
"@.>.=.2.2.2.2.:.I.qXqX6X2.2.2.8 7 8 U +.:. ._ ` ` i.a.b.b.b.A.e.W 3X3X3X7X4.Y.:.E / U T y.K.+XD.= = X X X X X X X X X X X 1 n n ",
"#.>.2.2.2.-.5.5.=.;.R.;.-.2.-.&.8 U U ! ! Q L / L u.a.b.b.b.A.r.E 3X3X7X3X4.Y.T L L P L U U @.n = = X X X X X X X X X X X * n n ",
"#.$.2.2.2.-.-.2.6.-.-.-.2.2.2.2.L L L Q T T T T T e.p.b.b.A.A.T L 7X7X4.L.3.H.T P U U 8 8 1 1 * = = X X X X X X X X X X + * n n ",
"#.$.2.;.;.O.=.6.2.;.;.;.2.2.-.-.&.5 2 > > 2 2 < 1 8 p.b.b.b.b.8 < ` #X3.6XU 1 8 1 ; * * * * 1 * = = X X X X X X X X X X + = n n ",
"#.#.;.2.2.$.#.;.2.2.2.2.2.6.;.P.K.U 2 < > > > > 1 u.p.b.b.A.A.8.1 ` #X2X6X~ 1 8 1 ; > 1 1 1 8 * = = X X X X X X X X X X # = b m ",
"k >.=.5.2.U.Z.k $.=.5.2.;.$.V.yXqX/ L L L L L P t.a.b.b.A.b.A.9.T 7X7X5XP.3.U L U 1 < 1 < 1 8 * = = X X X X X X X X + + = = b m ",
"j #.>.=.6XyXrXI.K.%.#.#.k #.K.rXqX/ P P P P / L u.p.b.A.A.b.A.9.T 7X7X5XK.3.L P U 1 1 1 1 1 8 * * = X X X X X X X X + + = = b m ",
"#.k #.%.I.6XqXyXyX4Xn j k =.4XrXqXf.L T P P T P a.9.b.A.b.b.A.9.T $X2X8XK.W U / U 1 > < 1 1 8 * * = + X + X + + = = = = = = h k ",
"#.#.#.k #.=.;.4X6XI.$.#.$.2.2.P.P.:.L T L P T P r.r.b.b.A.A.A.b.8 [ $XL.4.~ U / U 8 < 8 8 1 8 * * = = = + + + + = = = = = = b M ",
"#.#.#.#.>.5.5.2.2.2.-.;.;.5.2.-.5.-.U U U L T P P a.b.b.b.b.A.9.T L K.2X:.U U T U 8 8 8 8 8 8 * * = = = = = + = = = = = = = b n.",
"#.>.#.#.#.$.5.6.5.5.5.5.5.2.=.5.6.;.6 U U U U U T u.9.9.b.9.b.9.U 8 I.8Xv.8 U T U 8 8 8 8 1 7 * * = = = = = = = = = = = = * b n.",
"U O.#.#.#.#.$.2.6.6.2.5.6.=.#.=.5.o.P U U U U U P u.b.b.b.9.b.8.L U L.rXK.U U T U 8 7 * * 7 b * * = = = = = = = = = = = * * 1 n.",
"P P < j >.#.#.$.=.;.5.5.$.O.O.O.h * * f f f f * f r.A.9.b 9.9.b b f V.eXK.v b U U 1 f b b m m * * * = = = = = = = = = = * * * %."
};
