/* XPM */
static char *east[] = {
/* columns rows colors chars-per-pixel */
"64 64 137 2 ",
"   c #161612",
".  c #191715",
"X  c #171913",
"o  c #1B1B16",
"O  c #1D1D19",
"+  c #211E17",
"@  c #211E1A",
"#  c #1F2017",
"$  c #1F201A",
"%  c #212017",
"&  c #24231D",
"*  c #28251F",
"=  c #27281D",
"-  c #29281F",
";  c #262521",
":  c #292622",
">  c #272822",
",  c #2B2A25",
"<  c #2E2D29",
"1  c #302D26",
"2  c #312E2A",
"3  c #2F3027",
"4  c #2F302A",
"5  c #323027",
"6  c #34322C",
"7  c #39372F",
"8  c #3A362F",
"9  c #39352E",
"0  c #38352E",
"q  c #37382F",
"w  c #39382F",
"e  c #373230",
"r  c #373430",
"t  c #363531",
"y  c #393630",
"u  c #3B3630",
"i  c #3B3731",
"p  c #393732",
"a  c #3A3732",
"s  c #393631",
"d  c #373831",
"f  c #373932",
"g  c #3B3830",
"h  c #3A3831",
"j  c #3B3A30",
"k  c #3B3A31",
"l  c #3A3932",
"z  c #3B3833",
"x  c #3B3933",
"c  c #3D3933",
"v  c #3E3A33",
"b  c #3F3C33",
"n  c #3B3B35",
"m  c #3C3934",
"M  c #3C3B34",
"N  c #3C3A35",
"B  c #3C3B35",
"V  c #3C3B37",
"C  c #3E3B37",
"Z  c #3F3B37",
"A  c #3D3C34",
"S  c #3E3C34",
"D  c #3F3F35",
"F  c #3D3C36",
"G  c #3F3D36",
"H  c #3F3D37",
"J  c #3C3A34",
"K  c #3D3B38",
"L  c #3E3D39",
"P  c #423F35",
"I  c #413D37",
"U  c #403F36",
"Y  c #403E37",
"T  c #413E37",
"R  c #403D36",
"E  c #403C38",
"W  c #403F38",
"Q  c #403F39",
"!  c #423F38",
"~  c #413F3B",
"^  c #423F3A",
"/  c #413E3A",
"(  c #3F4036",
")  c #3F4036",
"_  c #3E4039",
"`  c #424036",
"'  c #424037",
"]  c #414336",
"[  c #414039",
"{  c #424138",
"}  c #40413A",
"|  c #43403A",
" . c #43413A",
".. c #43413B",
"X. c #444039",
"o. c #454239",
"O. c #46403A",
"+. c #41413F",
"@. c #43413E",
"#. c #43433E",
"$. c #44453D",
"%. c #45443E",
"&. c #44423C",
"*. c #48443D",
"=. c #49473F",
"-. c #48433F",
";. c #49483F",
":. c #464541",
">. c #484740",
",. c #4A4741",
"<. c #4B4742",
"1. c #494542",
"2. c #464940",
"3. c #474940",
"4. c #4C4942",
"5. c #4B4B46",
"6. c #4C4A44",
"7. c #4D4B47",
"8. c #4E4D47",
"9. c #4B4A44",
"0. c #4E4D48",
"q. c #4E4D49",
"w. c #4E4D4A",
"e. c #4E4D49",
"r. c #504B47",
"t. c #514E48",
"y. c #514E49",
"u. c #524F49",
"i. c #514F4A",
"p. c #52504B",
"a. c #54524E",
"s. c #56534E",
"d. c #56564D",
"f. c #57554F",
"g. c #52534C",
"h. c #545251",
"j. c #585851",
/* pixels */
"O O O O O & & > 5 1 5 5 > > > & & : : > & ; : > > > > : : > 2 2 5 5 5 2 > 5 5 5 5 9 5 2 2 5 > 2 2 1 r v v ~ v v v ` O.r.p.t.p.w.",
"O O O O O & : 1 9 v ~ 9 > * > > > 3 2 > * > ; & ; > : : & > > * & > 2 1 > < < v 1.~ 5 i d r > 5 2 5 5 v ,.~ 2 2 2.-.v w.h.p.,.,.",
"O O O O O & > 1 v ` ~ i 5 > > 2 5 2 > 1 > & & & & & & > & : : : & * : : > 5 2 i O.O.v 9 5 5 5 2 > 5 r i Y i i O.,.t.t.j.p.,.v O.",
"O O O O & & * 1 9 Y v i 9 > 1 5 > * : > : & + & ; & > > > > : : : > > : > 5 5 5 5 5 v v 5 5 > * : 2 v ( v L -.1.O.O.O.L Y O.O.w.",
"O O O + & # & > 1 v ~ ~ 9 > > < > > > < * & & + & : > > : ; & ; : & * : : : > 5 v 5 v ( v v 1 1 > 5 O.Y v O.v v O.1.v 2 5 v O.:.",
"  O O O & O & 1 5 v O.~ v 9 i 5 > > : > ; : & + * > : > > > > > > > : : > > : 5 9 5 i i 5 1 5 r 5 v Y v 5 L v ~ -.v 6 i 2 2 r i ",
"X O O O O O O > 9 v ~ ~ ~ v v 5 > : * & & & & + & > > : : > & > * & : > < > > 5 > 5 r i r 5 v i 5 O.v 5 5 5 5 L ( i i 2 > 5 5 i ",
"O O O . O + & * > 9 L ~ v 5 5 < > > : > & + & & O & & & * > : : & & ; : 1 2 < > 5 i i v L v L r 5 i q 5 v 5 2 5 5 2 5 > > > > 5 ",
"O O O O + & & * * * > i 5 5 r < > 2 2 2 > : & ; & & & & & & : & & : : : > ; & : 2 r 2 2 5 v v i v r 5 < 5 v v 5 5 v i r i 5 5 2 ",
"O O O O & & * > 1 5 9 -.O.v i 5 5 2 9 2 5 5 > > & > > : * : > : & & & > > & & : > 2 5 r < < 5 i v v 5 > > 5 v r 9 i 5 r 5 9 5 > ",
"O O O O & * * > 5 5 v ,.,.O.v v 5 > 2 < < > > > > : : > : > > > ; : : < 5 5 5 2 2 5 5 2 > < 2 5 v O.r 5 r 5 5 5 5 5 r 5 1 5 v i ",
"O O O # & * > 1 5 5 v 1.,.v 5 v L 2 > > > > : > 5 : & > > > > * & * > > 2 9 O.9 > 2 2 < > > 5 i v v 5 5 v 5 1 < 2 2 5 2 > 2 r < ",
"O $ O O & > > 5 5 v O.1.Y 5 2 r v 1 > 5 2 1 > 1 2 > 1 > ; > : & > : & > > > 5 5 < 5 5 5 5 5 9 ~ r 5 v v r 2 > : : > & & > > > * ",
"O O O O & 5 i 5 5 v v 5 > 5 5 v v 5 5 5 r v v 5 > > 5 > > < > : > > : : > > < > > > > > > 5 5 i > < 2 3 > > : 2 < > > > > > > : ",
"O O O + & > > : > 5 i < : > 5 v v v L O.5 5 r d 1 2 2 i 2 > 2 > > > < & > > > 2 2 < > > > 2 2 : * : > : ; + & > 5 : : > > > > : ",
"O O O O & & & * : 5 5 2 5 O.~ i 5 i 5 5 2 5 r v 2 > 9 ~ 2 1 1 > > 2 5 > > 5 2 i 5 < < 2 < > ; + & & & ; & & & > 2 & & : & > > > ",
"O O O O % > > > 1 5 5 i v O.L v v r i v 5 5 v L 2 d v 2 5 9 3 5 5 5 2 < 3 5 2 5 5 5 < 2 < > & & + + + & : & & > > & & & > > > ; ",
"O O + + & 1 1 > 2 1 r v r r r i q 5 v i 5 > 5 5 2 v v i v 5 > 5 5 5 5 > < > > 2 5 > < 2 > & ; & & O + & O + & ; & > & : > > & + ",
"O O + & * > 1 > > 2 i v r 5 v r > q i > ; < 5 : 2 5 5 r v 5 2 r 5 5 2 5 < > : 2 > : 2 < : ; : ; & + O + O $ & & & & & & : : + + ",
"O O + & * > 5 > 1 5 5 5 > 3 5 i < v 5 > 5 r 5 > 5 2 5 r L v 5 r v v 5 5 > : 2 < > < > : > > < > ; & O & > ; & & ; & & & : ; + & ",
"O O O O & 5 q 5 q 9 9 9 d v O.i 1 2 2 > v L 9 9 > > 5 5 5 v v ~ ~ ~ 5 > > : 2 3 < 2 < : ; > 1 : > > : : ; ; : * & & & : ; & ; > ",
"O O O O & 5 v q 9 i i O.,.t.,.Y v > r > r v 5 i 5 5 r 5 2 5 5 2 9 i r < > > > > > 5 < < > > & & ; : ; > : & & & + & & & & & & & ",
"O O O O & 5 5 2 9 v O.O.:.v 5 O.p.5 5 5 v v r 5 5 v ~ ~ v v Y r 9 v 5 5 5 5 > > 5 5 2 > : : ; : > > : > > ; & & : > & & & & & ; ",
"O O O O + : > > v v :.1.O.v 5 v v v i 5 v v i 5 1 i v v ~ O.L v ` 5 5 5 5 < 1 5 3 > : : : & ; < > ; > > & : & > : > : : & & ; ; ",
"O O O O & > * > v v 9 Y v v r 2 > r v 5 r r 5 r 5 Y O.L v r 5 r v 2 > 5 > > 5 2 > ; : : : : : > > > < : & & & > > : & & & & & ; ",
"O O O & & & 1 5 v v L w.O.v v i 5 v v ~ v 5 i v v L O.v v i 2 2 < < > 5 < 5 5 & & ; : : ; : > > ; : : > ; & > : & & : ; & & : : ",
"O O O & & = i v d L ,.p.~ i L i L 1.1.,.~ ~ v r v v v 5 r 5 > r r 5 9 d > 5 2 & O & : : ; > 1 > & : : & & ; : ; & & ; & & & & ; ",
"O & O O & > 5 5 v :.w.w.L 5 i v v v L O.v v v r i r v L v 5 i L v 2 5 v v < 2 < & & : : : > < : & > : ; : < > ; & ; & ; & + & & ",
"O O O O & 1 > 5 v O.h.w.L 5 5 5 5 5 v O.r r 9 v _ L v L L v v 5 < 5 i Y i v 9 > ; & & ; ; : : & ; > > : : > < : & & ; > > & & ; ",
"O O O O & & & 2 L _ :.:.r 2 < 2 1 r v v v v 5 r v _ 5 v ~ v v 5 5 v O.i 5 5 2 > > : & : > : & & & : : ; & & : & ; : : : : > : : ",
"O O O O O ; > > 2 v :.:.r 3 5 2 5 i L L ~ O.v v 2.v v :.O.v v v ` O.5 < < > 5 > 2 1 > > > > & ; ; : : > > > > > > > < < 5 r 2 > ",
"O O O O + * 2 5 2 _ w.O.5 < 5 r < 5 v v O._ O.,.2.v i L O.v v r v v 2 > > 2 2 > 5 > > > > > > ; : > : ; > 2 > : > > 2 q v i 5 2 ",
"O O O O & & : 5 r 5 v d < > 5 r 5 :.p.O.O.~ v :.:.v 5 v O.v i v v 5 5 2 5 5 5 5 > > > > > > ; ; : > : ; : 2 2 > < > > i v 2 > 2 ",
"X O O O O & > < > 5 5 2 > > > > ( ,.w.,.v v 9 L v > > ,.,.~ i v v 5 5 5 5 > > > & : > 2 > & $ ; > & & & & > 2 5 < 1 < > < > > < ",
"O O O O O & > 5 5 r r : & < < r v O.,.p.2.O.r r L 5 _ :.L v < > 5 5 2 > > 1 > & ; * < 2 & & & ; * & ; > > > 2 5 5 5 5 > : ; > 5 ",
"X O O O O & > > 3 v 5 & ; < < r v v 1.h.p.1.L O.1.v v 5 < > > < 5 5 < > & 5 2 > 2 < > & ; : > : : > : > > > < 2 2 1 2 2 1 5 2 5 ",
"O O O O O & 5 > > < > & & ; ; < 5 2 :.p.,.:.:.O.r > < 5 5 < > 2 < 2 < > : 2 > < 2 > : : ; > > 2 > > ; : > 5 2 > < > 2 2 < 5 r 5 ",
"O O O O O & 5 2 > 2 2 : ; ; ; 2 5 L 1.O.v v i 5 > : > > 5 5 > r v v v 5 > : ; ; 2 2 2 < > > > 5 1 : : : > 2 > ; ; < 5 < 2 < 5 5 ",
"O O O O O & > > 5 v i > ; > > r v v r 5 v 5 > < 5 3 > 2 > 5 v L L v r 2 < < : ; 5 1 > : > ; : < > > : : : > > : > < < > 2 5 > 2 ",
"O O O O + & ; * < _ r ; ; > < i r > < > 2 > > 2 > 5 > 5 5 5 5 2 5 > > : : 3 : ; > ; : > < > > 5 > : 2 5 > > < 2 < < 5 2 5 r > < ",
"O O O O O & & ; 5 v < ; > 5 5 r 5 2 5 5 > 2 5 5 > > > > 5 5 1 : > & > ; & + + ; > > ; > 2 > 2 5 > < v i < > 2 2 < 1 > 5 5 5 > < ",
"O O O O O O + ; 2 5 < 5 5 v O.r 2 < 5 5 5 5 2 2 2 2 1 < > > < 2 > ; ; ; & & ; > > : & ; < > < 5 > < < > > > > 2 < 5 < 5 2 5 5 2 ",
"O O O O + O + : * > 5 5 2 i L v r > > 2 r 5 5 2 > 5 5 < > > 1 5 ; : : ; ; ; > < > ; & : : 2 < r < < < > > > : > > > > < : : < 2 ",
"O O O O O + & > > 2 i 2 > : > : < : > 5 v ~ i i 5 < 5 < > ; > > & ; : : : > > > ; ; > < < < < 5 5 5 < ; > > > > < > > > > * & & ",
"O O O O & & : > 5 v 5 2 > ; > > ; < i v v ~ v 9 v 5 r 2 : & & ; & & ; : < > > : ; ; > < > < 2 i 5 < > > < > : > < < ; > < > ; & ",
"O O O O & : > 5 5 5 5 2 2 5 > > > ; 2 5 v i 5 5 5 5 > > > > ; ; & & : ; : & & ; ; & ; : ; > v ~ 5 5 < < < > > > > : ; ; : > > > ",
"O O O O + & > v 5 > 2 2 5 r 5 2 < < < 5 5 > > 5 < ; & & > : : : & & ; & ; & ; ; ; ; ; ; : > v v 5 2 : : : > 2 < > > > & > < < : ",
"O O O O + * 1 v O.L v 5 5 5 2 2 2 2 5 2 < > > < > ; ; > > & * & & & & ; ; ; & ; ; > : : > > > > < < ; & & & > 2 < > > > > < ; & ",
"O O O O & & * > v O.O.O.O.v 5 r r < > < 2 < < < : & : > & + ; : & & & ; : ; : ; ; ; : : ; ; & > > > > > ; > > < < > 3 2 > : ; ; ",
"O O O & & & ; : > 5 r L r O.O.r 5 < ; > > < < < > & ; & & & ; ; ; ; ; ; > > < < : ; & ; & > > 2 5 2 : ; > < < 2 5 5 < > ; > > > ",
"O O + & O & ; : + ; 2 v 5 v L < < 2 < < > < > ; & > : & ; ; & ; & & ; & ; ; : : ; & & + & > < 2 5 > : : > > > < 5 > ; > < 2 5 2 ",
"O O O O O + & ; & > 2 i v r 5 r 5 > < > & & ; ; ; & > 1 > ; & & & > & & ; ; & & & & ; ; & ; > > > > > > > ; > > > > < 5 r 5 < > ",
"O O O O O & * > ; * : 2 r v O.:.5 < > ; & & & & > > : > < > > & & ; + : : > > : ; & ; ; > : ; ; > ; > > > > > > > > 2 5 > > > < ",
"O O O O + O & & $ & & ; : r O.~ v 5 < > ; & & & > > ; ; : > > & > ; : & & ; > > ; + ; ; > > ; & > > > > ; > > > ; < 5 < : < 5 < ",
"O O . O O O O O O O & & < i L ~ v r 5 > : ; & & & & : > & : > < : & > > & ; : ; ; & ; ; ; & O O ; & & + & : : > > > < > > < > > ",
"O O X O O O O O O O O & 5 v r v v v i < > > & & : ; ; ; : & ; > > ; > 2 > ; ; ; ; ; ; ; & $ + & + O O + & ; & ; < > > > : : > > ",
". X O O O X O O O + + : 5 r > : 2 5 5 2 > 2 > : : > ; ; > 2 > ; : ; > < < ; ; ; & + & > & & & + ; ; ; & & ; : > < > ; & > < > < ",
"X O O O O O O O O & & & > < > 5 2 2 < > > > > : : > : : ; > > < 5 > > > & + & & & & & & & & ; & & ; > : ; : > > ; : > : < > > 5 ",
"X O O O O O O O & & & & > 5 r 5 < < < 5 5 > & ; 1 > > 5 2 2 5 5 5 < < : & O & & & & ; & & & & & + ; : > > > : & + > > > > > 2 5 ",
". O O O O O O O O O O ; > < r < 5 < < r 5 > > : > & : v v 5 2 5 > > > & O O & + & & ; & ; & & & & & ; & : ; & & & & > > ; > r 2 ",
"O . O O O . O O + & + ; : > 5 5 r 5 5 r 5 v 5 > : : 2 v v > > 2 : : > ; O $ & & & & ; & ; ; & ; & ; + ; & & ; ; ; ; > > > < 2 > ",
"X X O X O O O O O & & & * : 1 v :.L 5 2 5 v 5 > > > : * < > > > : > > : + + & ; & & + & & & & ; & & & & & & ; > > ; : < < < > ; ",
"X X X . O O O O O O O O O + + > v ~ i 2 3 2 5 2 < > > : > > > : : > ; + O & + & & & & & & ; ; ; ; ; & & $ & & ; > 2 > > < > : ; ",
"X X X X   X O O O O + O O O O & & 5 5 > ; & : 2 > > 2 2 : : ; > < ; & & + O & & & & & & ; & & & & & & & & & ; : < 5 < & & + + & "
};
