/* XPM */
static char *north[] = {
/* columns rows colors chars-per-pixel */
"64 64 176 2 ",
"   c #15140E",
".  c #161612",
"X  c #191713",
"o  c #171914",
"O  c #1B1B15",
"+  c #1E1D19",
"@  c #211E17",
"#  c #211E19",
"$  c #1F211A",
"%  c #202017",
"&  c #23221C",
"*  c #29251E",
"=  c #27281F",
"-  c #2A281E",
";  c #252521",
":  c #252520",
">  c #272420",
",  c #262520",
"<  c #272520",
"1  c #272421",
"2  c #272521",
"3  c #252620",
"4  c #252621",
"5  c #262620",
"6  c #272620",
"7  c #272720",
"8  c #272621",
"9  c #272721",
"0  c #242422",
"q  c #252422",
"w  c #262522",
"e  c #262421",
"r  c #282520",
"t  c #292421",
"y  c #282620",
"u  c #282720",
"i  c #282721",
"p  c #2A2720",
"a  c #2B2621",
"s  c #282622",
"d  c #2B2723",
"f  c #2B2624",
"g  c #292621",
"h  c #2A2820",
"j  c #2A2821",
"k  c #2B2821",
"l  c #282822",
"z  c #282823",
"x  c #292823",
"c  c #2A2822",
"v  c #2B2922",
"b  c #2A2923",
"n  c #2B2A22",
"m  c #2A2B22",
"M  c #2C2823",
"N  c #2D2823",
"B  c #2D2A22",
"V  c #2C2B22",
"C  c #2E2C22",
"Z  c #2F2C23",
"A  c #2B2A24",
"S  c #2A2926",
"D  c #2D2A24",
"F  c #2F2A24",
"G  c #2C2C24",
"H  c #2E2D24",
"J  c #2E2C25",
"K  c #2F2D25",
"L  c #2F2E24",
"P  c #2F2F27",
"I  c #2D2B25",
"U  c #2F2D29",
"Y  c #312C23",
"T  c #302D24",
"R  c #322D25",
"E  c #312F25",
"W  c #302E24",
"Q  c #312F26",
"!  c #332F27",
"~  c #332F25",
"^  c #342F26",
"/  c #312D26",
"(  c #322F2A",
")  c #322E29",
"_  c #2F3027",
"`  c #2F3029",
"'  c #333126",
"]  c #343024",
"[  c #343026",
"{  c #363327",
"}  c #333126",
"|  c #393327",
" . c #313128",
".. c #323128",
"X. c #323228",
"o. c #35312A",
"O. c #36302A",
"+. c #373329",
"@. c #353429",
"#. c #37362D",
"$. c #34332C",
"%. c #39352D",
"&. c #37382E",
"*. c #3B382D",
"=. c #3C392D",
"-. c #3E3A2D",
";. c #3C392E",
":. c #3B392E",
">. c #363631",
",. c #393631",
"<. c #373831",
"1. c #3F3B31",
"2. c #3D3B32",
"3. c #3C3A33",
"4. c #3E3D39",
"5. c #40372E",
"6. c #413B2E",
"7. c #403930",
"8. c #433A31",
"9. c #423D33",
"0. c #423E33",
"q. c #423C35",
"w. c #433F37",
"e. c #413D35",
"r. c #423E39",
"t. c #3F4036",
"y. c #3F403A",
"u. c #444135",
"i. c #454037",
"p. c #464337",
"a. c #434136",
"s. c #494237",
"d. c #454138",
"f. c #474138",
"g. c #464238",
"h. c #44423B",
"j. c #494339",
"k. c #49463B",
"l. c #4C473A",
"z. c #4A433C",
"x. c #4A453C",
"c. c #4B493F",
"v. c #4B493E",
"b. c #50463E",
"n. c #514A3E",
"m. c #464541",
"M. c #494641",
"N. c #474941",
"B. c #4C4A43",
"V. c #4E4C48",
"C. c #524D44",
"Z. c #524F4A",
"A. c #4E5047",
"S. c #545146",
"D. c #585347",
"F. c #55524B",
"G. c #5A554C",
"H. c #5B594E",
"J. c #555351",
"K. c #5A5651",
"L. c #5D5B53",
"P. c #5F5E58",
"I. c #60594E",
"U. c #615C54",
"Y. c #625F59",
"T. c #636056",
"R. c #65625C",
"E. c #69655D",
"W. c #676560",
"Q. c #6A6762",
"!. c #6D6A63",
"~. c #716C64",
"^. c #726E6B",
"/. c #74726B",
"(. c #79766D",
"). c #817E79",
/* pixels */
"O + O O + O + + + + + # + + # # & & & & & & & & & & & & & & # & & & & & & & & & & & & & & & & & e & & e e u e & & & + & & + # & ",
"O O + # + O O O + + + & + + # + + # # & % & e & & & & & & & & & & & & & & & & & & & & & & u e & & & & & & u e & e & $ & & # # & ",
"O + # & # # # + + + # & # O + + O + % & & & & & & e & & e e e # + & e e e & & u * e N N N N N u e e e e N e u N e & & & & & & e ",
"O $ # & & # + + + + & + O O O + O O O O O # # @ @ # & @ & & & & O & & & * & & & & # & e N N u & & e & & & & & & & O + & & # # & ",
"O O + & & & & + & & + + + O + O O # + # & & & @ & - [ $.^ N N N N ^ ^ [ ^ ^ ^ ^ [ ^ u - N N N N N N u N N $.$.$.N ^ ^ N - - - N ",
"O O + & & # & + @ & # @ % % % & & * u N * - N N ;.4.e.4.e.e.e.;.e.e.e.e.e.u.u.;.x.x.;.[ [ ^ ^ ^ $.[ ( $.$.4.g.x.u.v.x.u.g.u.g.e.",
"O O O + # # @ & - [ [ ^ %.%.%.%.| ^ N ^ ^ [ ;.4.u.u.e.u.u.u.u.x.x.x.C.x.x.C.x.s.s.e.x.e.%.| $.%.e.;.%.[ ^ ^ $.$.[ 4.$.$.4.e.e.u.",
"+ + O + & & # - e.;.^ [ %.;.%.| ;.4.e.%.%.%.e.u.;.%.%.e.e.[ [ %.4.e.s.s.x.s.x.x.s.6.e.b.B.x.C.U.F.v.e.%.e.%.$.%.%.e.e.%.;.5.x.x.",
"O + + & * - & [ g.6.[ [ %.$.4.g.v.v.e.;.4.g.g.u.C.S.%.%.%.;.%.%.e.e.s.x.x.s.b.x.x.x.S.E.R.U.I.T.Y.H.x.x.x.u.4.x.B.S.C.B.v.C.b.G.",
"+ + O & - * ^ ;.e.^ ^ %.4.v.E.Q.R.G.S.U.T.G.S.D.H.D.x.;.6.u.x.x.v.x.v.C.x.s.C.x.u.u.G.I.x.x.x.x.B.g.v.B.v.F.F.B.C.F.x.u.x.s.x.F.",
"+ + # & & - $.%.[ ^ N ( e.v.C.e.v.S.D.U.G.S.G.S.C.v.x.e.s.D.G.C.s.u.e.;.e.u.4.;.%.u.;.^ [ v.C.x.x.u.C.K.G.K.U.K.H.I.F.S.K.G.U.(.",
"& O & & & # N ^ ;.e.%.$.%.%.$.^ $.4.e.e.e.g.C.G.H.R.H.b.6.e.e.x.v.x.x.e.x.e.^ %.u.C.g.e.e.B.F.H.H.U.R.T.T.U.Y.E.E.E.!.R.!.~.!.!.",
"+ # & = * - N %.e.g.v.x.g.e.%.e.;.%.e.e.%.%.^ %.g.S.U.U.U.S.S.G.G.U.E.H.F.e.%.e.e.v.C.G.G.G.U./.(.~.~././.~.!.R.R./.!.R.!.^.!.Y.",
"+ # N ^ ^ ^ %.e.x.F.F.B.S.v.e.e.u.g.x.r.4.r.g.C.K.F.F.U.R.!.(.!.R.!.~.K.C.b.x.B.x.v.G.U.H.G.Y.!.!.U.!.~.!.!.)./././.!.!.^.!.^.Q.",
"+ & U [ ^ ^ e.G.K.F.g.4.M.B.4.^ $.4.e.4.4.g.x.g.Z.x.g.g.B.C.K.R.R.R.U.T.U.K.C.x.B.v.H.R.K.G.H.K.C.C.Y.R.C.C.!.Q.^./.!.W.R.R.R.K.",
"O & & * [ ;.x.K.K.F.F.M.V.B.e.%.4.u.g.g.g.4.$.$.>.>.4.r.e.4.e.g.F.R.K.K.H.K.K.T.H.B.B.U.R.K.F.F.F.F.R.!.E.K.K.R.Y.Y.Q.W.R.E.R.K.",
"O O # u %.e.x.C.H.K.K.R.R.K.C.e.g.g.B.g.B.g.,.$.U 4.%.( ,.4.%.,.4.g.C.F.G.U.R.K.R.G.B.g.e.x.B.Z.C.B.F.B.H.F.U.K.K.Y.Y.T.R.E.F.M.",
". O @ N %.%.e.F.K.K.U.F.F.F.v.4.g.M.g.4.e.g.g.4.%.$.( $.$.,.,.,.4.%.%.$.4.Z.G.F.B.g.C.C.g.x.x.M.M.x.B.B.g.F.K.K.R.R.K.K.F.x.e.,.",
". X O N 4.[ e.U.!.K.K.B.m.K.B.4.4.g.g.<.$.$.,.4.r.$.4.4.%.$.( ( ,.$.$.$.%.r.e.4.g.g.B.g.g.g.x.C.B.B.B.B.B.R.R.K.B.B.F.B.F.B.g.4.",
"  . O & ^ * ,.F.Q.P.F.V.F.F.g.4.,.4.4.,.,.$.%.,.4.4.g.,.^ $.( ( $.$.$.$.$.,.%.$.4.4.%.$.$.;.g.B.e.r.B.B.B.F.J.J.F.F.Z.v.B.B.4.4.",
"  X O & $.4.Z.J.F.B.m.B.B.r.4.r.4.4.4.%.4.4.,.,.,.4.4.$.$.$.$.$.$.$.( $.%.^ N ( $.4.4.,.r.$.e.e.r.x.B.m.g.B.K.K.K.F.g.g.4.4.4.,.",
"O O O & $.g.K.R.K.J.Z.g.r.e.4.4.4.4.4.$.$.$.$.$.e.4.,.$.>.4.$.$.$.$.( $.$.N N N $.r.r.u.e.$.4.g.B.B.F.F.g.Z.F.B.g.g.g.4.,.4.4.$.",
"  O O * ^ 4.B.K.K.R.K.4.4.t.,.>.&.$.$.$.$.>.$.$.$.%.%.$.4.4.$.( $.,.$.$.$.N $.$.%.4.,.4.4.$.4.4.M.M.B.g.g.B.m.r.B.g.4.4.4.g.4.4.",
"  O & * N $.g.C.F.B.B.4.$.4.$.N $.&.,.4.4.4.4.$.$.$.>.$.( >.$.( $.,.,.%.$.$.4.<.$.$.%.$.4.<.g.g.x.x.g.g.B.m.m.g.m.r.4.4.%.;.e.4.",
". O & u N ( 4.M.B.B.y.r.4.4.4.$.$.$.N $.4.$.$.$.$.$.( >.$.$.( U ^ N $.,.4.r.r.4.%.[ $.$.,.4.r.4.g.g.g.4.e.g.4.4.4.4.4.x.B.4.e.x.",
"o O & & u %.g.x.B.B.g.4.g.4.4.%.N [ N N $.^ $.$.%.;.$.>.4.%.$.$.( N $.4.e.g.4.$.$.$.4.%.$.$.;.4.g.x.,.$.g.4.%.4.4.4.e.g.4.4.e.r.",
"X O O * ^ e.B.g.g.g.B.g.B.4.[ $.^ $.( $.$.^ $.g.4.$.$.$.$.$.$.,.4.$.$.$.$.$.,.$.$.$.e.4.%.4.r.4.g.B.4.$.&.4.$.%.>.$.$.e.4.;.g.r.",
"X O O * ^ 4.g.M.B.4.M.r.g.$.$.$.$.$.( $.%.^ $.e.4.4.,.$.( _ $.$.$.$.4.4.4.,.r.4.;.4.4.^ ( 4.4.4.4.g.M.4.$.4.%.( _ $.$.e.4.%.e.g.",
"X O & u $.g.r.B.B.M.m.,.$.$.%.U * N N $.%.$.4.4.4.4.$.$.>.$.$.,.4.g.,.4.u.,.%.$.$.%.$.N $.g.4.4.4.g.g.4.$.( ^ N $.e.4.u.4.%.4.e.",
"X O & N $.r.Z.m.g.g.x.4.$.$.$.N ( $.$.$.%.$.4.4.4.$.$.,.4.4.$.4.g.u.$.,.%.$.e.$.[ $.$.$.4.4.e.e.$.$.( U U ( N _ 4.u.;.e.r.%.4.e.",
"O O & N $.4.g.g.4.r.4.4.4.$.$.%.4.,.4.;.$.$.4.4.,.$.$.$.$.$.$.$.$.$.4.e.%.4.r.$.$.,.4.,.%.4.4.$.>.,.$.N $.$.$.$.;.;.$.4.4.4.$.,.",
". O u N $.4.,.4.N.g.4.4.%.U $.4.4.4.4.,.( $.,.$.$.$.$.,.%.$.$.( U $.4.e.g.x.4.$.$.4.%.$.$.4.%.>.4.%.$.$.,.^ $.$.^ %.%.4.;.4.4.$.",
"O O N N ;.x.e.$.e.t.4.,.N N ( >.4.$.4.4.>.$.$.4.%.$.$.$.>.%.$.$.%.4.,.4.4.e.4.4.$.N ( ,.e.4.$.,.g.&.$.t.N.4.$.$.$.$.g.4.$.4.$.$.",
"o O u $.4.r.e.r.4.4.$.$.,.,.$.$.4.<.4.$.,.,.$.4.g.4.$.>.<.4.$.$.4.4.e.$.$.u.;.$.$.$.4.4.r.,.4.e.4.4.4.Z.K.B.4.4.4.$.4.,.4.r.g.4.",
"O O # ^ e.4.e.g.4.,.g.g.4.4.4.4.r.u.y.>.4.4.4.;.4.e.g.r.$.( ^ $.,.%.4.4.;.x.;.$.;.4.g.r.;.,.4.4.4.g.B.B.B.4.4.u.u.%.$.,.u.e.4.4.",
"O   O & 4.e.4.4.e.u.g.g.4.g.B.g.g.g.4.>.$.4.,.( $.4.4.4.$.N U $.$.$.$.e.g.4.%.4.4.4.u.4.$.$.%.$.$.y.g.4.g.4.4.g.g.u.u.$.e.%.%.e.",
"O X O & N %.u.4.g.g.g.g.M.B.Z.B.e.4.4.>.$.4.4.4.4.e.4.4.4.$.( $.$.$.4.4.e.4.;.4.$.g.u.4.4.4.$.,.u.B.g.>.x.g.%.4.x.v.g.4.r.4.g.u.",
"O O O & e $.r.4.4.B.F.g.N.C.g.M.g.4.4.r.4.4.4.>.4.4.%.4.%.%.$.,.$.$.4.,.4.r.4.4.4.u.4.4.4.4.%.$.4.g.4.g.B.g.r.g.B.g.4.4.4.%.e.$.",
"O X O + & N %.4.4.g.B.r.M.x.g.r.x.4.%.4.$.$.( $.4.4.$.$.$.$.,.>.4.$.$.>.4.t.4.,.4.4.4.$.$.%.$.>.4.4.g.B.F.B.F.F.g.g.g.4.r.4.4.$.",
"O O O O & N U ( 4.4.g.g.m.g.g.y.g.$.$.,.( [ U ( 4.4.$.>.$.$.$.U $.>.$.,.4.%.%.4.4.$.$.$.,.4.$.,.r.g.g.g.g.r.S.v.$.F.F.g.e.4.4.g.",
"O O O O & ^ ^ %.4.4.g.g.g.g.g.r.g.$.,.4.%.$.U ( ^ N U 4.%.N ^ U $.( %.$.$.$.4.e.4.4.4.g.u.g.F.B.B.g.g.V.N.g.B.g.e.B.B.g.4.4.e.B.",
"o O O X & ^ N ,.x.v.r.m.g.4.g.y.g.4.$.>.4.$.U $.$.$.$.$.$._ $.( _ N ( ,.&.>.4.,.g.g.e.r.4.g.F.F.Z.r.4.4.g.r.4.u.g.B.v.4.M.x.e.g.",
"O O O X O u ^ $.g.g.g.M.g.y.g.m.g.g.>.4.4.$.$.$.4.>.( N ( $.,.$.N U $.%.$.$.,.4.g.4.,.e.4.4.4.$.4.>.>.$.,.4.$.4.B.B.g.g.B.M.g.g.",
"O O + O # N $.4.A.x.g.Z.V.m.4.4.$.>.$.>.>.$.$.$.$.>.4.$.$.$.$.( $.$.$.%.$.^ $.,.;.4.%.,.$.$.$.,.$.$.$.>.$.$.$.u.B.M.g.g.g.4.u.g.",
"O O O O & $.e.4.g.V.B.V.m.m.,.>.4.$.$.e.>.$.$.^ $.,.4.$.,.4.$.$.$.^ [ $.$.N N 4.<.4.4.$.$.N N $.>.$.$.$.N N [ 4.g.g.g.r.M.v.g.4.",
"O O O + & ( e.e.B.K.Z.M.m.g.>.4.4.4.,.4.$.$.$.$.$.$.[ $.4.4.$.4.$.^ $.$.>.$.$.,.4.4.$.$.^ e N N $.$.( U N N $.U ( 4.r.4.g.v.x.r.",
"O O O O & U 4.r.B.V.g.>.4.4.>.>.$.e.,.$.>.,.4.4.$.^ $.,.$.$.,.4.4.u.4.4.$.$.$.$.$.$.$.$.N N N N $.$.$.$.$.$.>.,.4.4.,.4.4.%.,.g.",
"o + O O + * $.,.m.4.4.g.g.4.4.4.t.g.,.^ $.$.,.4.;.$.4.4.$.N $.N 4.B.4.$.4.>.%.N _ $.4.r.$.U & e $.^ $.$.$.%.$.>.4.4.$.$.$.N N 4.",
"O O O O O & ^ 4.4.4.g.g.4.4.4.$.4.g.4.$.( N $.$.$.$.,.$.^ ^ N ( 4.4.$.,.g.4.4.$.$.$.4.r.%.N u N U N $.$.( U $.$.$.$.( $.U U N ^ ",
"O O O + O - e.B.4.4.g.4.4.$.&.g.4.g.g.N [ $.$.$.$.$.( $.4.N N $.$.$.4.4.4.e.g.4.4.4.e.r.^ & N e.g.$.( N N ( $.$.( $.$.( & u N ( ",
"O O O O @ N e.x.x.B.M.4.>.$.%.4.$.$.$.^ 4.$.%.$.$.$.N $.4.$.%.e.<.4.4.4.4.4.g.g.4.e.%.$.u N 4.g.g.,.,.$.^ N ^ $.>.$.$.( N $.$.$.",
"O O O O # * $.,.x.e.$.^ $.$.N ( N $.$.$.4.$.$.$.%.,.$.$.$.$.4.4.4.4.%.$.$.4.g.4.4.4.4.$.N 4.4.>.%.$.4.$.U U $.$.$.( U N $.,.$.$.",
"O O O O O & - N $.%.,.( N $.$.,.4.e.$.$.$.U $.^ _ $.$.$.$.4.4.,.4.4.>.4.4.4.4.4.4.%.4.4.4.g.g.4.4.$.$.$.( ( $.( ( ^ ( $.%.^ $.$.",
"O O O O O & & & & N $.N $.$.%.,.r.4.N ( N N 4.,.[ N $.( ( $.4.4.$.;.4.$.>.4.4.,.<.N $.4.g.g.m.r.$.,.>.,.U ^ N ( $.^ $.4.$.N ( $.",
"O O + + O + # & & u u u ( $.$.( $.$.^ $.$.$.4.%.$.$.$.$.%.$.$.,.4.4.4.$.>.( %.,.4.$.>.<.$.$.4.4.$.$.$.^ N U $.$.N N $.[ ( $.( ( ",
"O O + + O O # & u N u u ( $.$.,.4.$.N $.$.$.$.N ( ( N ^ $.$.$.$.$.$.$.4.g.4.>.4.4.4.4.,.$.N >.r.,.$.%.U N $.>.>.^ ^ $.$.$.$.$.$.",
"O O + X O O # & * u * u N u ( ( ( $.N u N ( ( N $.$.$.4.4.,.,.^ $.4.4.u.y.%.%.4.%.$.$.N ^ 4.e.g.4.$.<.>.N $.,.%.$.( $.4.4.4.r.4.",
"+ O O O O + + + & & e & * & & & + e N N N ( ( $.4.;.%.%.$.$.$.$.$.4.%.%.4.$.( $.( $.$.( $.4.g.g.4.^ $.$.N N $.4.%.$.$.,.4.g.e.4.",
"O O + O O + O O + # & & & * & & & e N N $.$.$.$.[ $.%.$.$.U $.,.$.$.$.$.%.$.$.$.^ $.$.$.4.%.>.>.$.N ( U ( N $.$.$.$.$.$.$.$.$.[ ",
"+ O + O . O O . O & & & & & & & & N N N ( ( U U N $.%.>.,.^ $.>.$.$.$.%.4.$.$.$.N ( $.$.$.( $.( ( N ( N u u N $.N $.,.4.( ( 4.4.",
"O O O X O O + O + & * * & & & u * N N ( N U U N N &.$.$.( N N N $.( %.$.$.$.>.$.$.$.%.$.$.$.$.( N N N N N N ( ( $.%.$.$.$.4.g.r.",
"+ O + O O O & & & & & # & & u N N N N ( U U N ^ U $.U N ( ( U $.$.N ( ( $.$.( $.$.g.r.$.$.$.N N ^ N N N $.$.$.$.4.%.$.r.v.4.4.V.",
"+ O & + + + u N & * & & u N e N $.u N N N N N U ( N N ^ $.$.$.$.,.$.N N %.4.N $.4.4.$.( ^ U ^ $.$.$.( ( ,.,.4.x.%.$.,.x.B.u.v.K.",
"+ # & O O & e u N N U U $.U N u N e e u * & N N N N N N N N $.$.$.( N N [ ( N ^ $.N N N u N $.,.$.( $.$.,.4.r.B.4.e.B.F.B.B.K.K."
};
