/* XPM */
static char *south[] = {
/* columns rows colors chars-per-pixel */
"64 64 152 2 ",
"   c #1D1C16",
".  c #1E1E19",
"X  c #221F1A",
"o  c #1E2017",
"O  c #1F221B",
"+  c #23231D",
"@  c #28251F",
"#  c #27291E",
"$  c #292A1F",
"%  c #262521",
"&  c #292621",
"*  c #262923",
"=  c #2C2B25",
"-  c #2E2D29",
";  c #312D26",
":  c #312E29",
">  c #2F3127",
",  c #2F3029",
"<  c #353327",
"1  c #353226",
"2  c #353127",
"3  c #323127",
"4  c #333229",
"5  c #333129",
"6  c #343229",
"7  c #353329",
"8  c #373228",
"9  c #373229",
"0  c #34302B",
"q  c #34332B",
"w  c #37332A",
"e  c #36322B",
"r  c #36332B",
"t  c #333429",
"y  c #36342A",
"u  c #37352A",
"i  c #35322D",
"p  c #37332C",
"a  c #36352C",
"s  c #37372C",
"d  c #37362E",
"f  c #37362F",
"g  c #34332C",
"h  c #383328",
"j  c #383229",
"k  c #393129",
"l  c #39352A",
"z  c #3A352B",
"x  c #3B372B",
"c  c #38332D",
"v  c #39332D",
"b  c #39342C",
"n  c #38352C",
"m  c #39352D",
"M  c #3A352C",
"N  c #38362D",
"B  c #38362E",
"V  c #39372F",
"C  c #39352E",
"Z  c #36382E",
"A  c #39392E",
"S  c #3B382E",
"D  c #3A382F",
"F  c #3B392D",
"G  c #3A392F",
"H  c #373630",
"J  c #363531",
"K  c #3B3731",
"L  c #393631",
"P  c #373831",
"I  c #3B3932",
"U  c #3C3830",
"Y  c #3C3930",
"T  c #3C3931",
"R  c #3E3931",
"E  c #3E3A32",
"W  c #3E3A33",
"Q  c #3F3C33",
"!  c #3D3C35",
"~  c #3C3B34",
"^  c #3E3E39",
"/  c #413A2E",
"(  c #403D30",
")  c #433C32",
"_  c #423E36",
"`  c #443F37",
"'  c #413D36",
"]  c #473F38",
"[  c #413E39",
"{  c #3F4036",
"}  c #3F403A",
"|  c #444237",
" . c #454237",
".. c #424137",
"X. c #44423B",
"o. c #48423B",
"O. c #49453A",
"+. c #48443B",
"@. c #48443D",
"#. c #4A463E",
"$. c #4E473C",
"%. c #49463D",
"&. c #47483E",
"*. c #48483B",
"=. c #4E483B",
"-. c #4B483C",
";. c #4F4A3C",
":. c #4F493E",
">. c #4B483E",
",. c #504B3F",
"<. c #534B3F",
"1. c #474540",
"2. c #4A4641",
"3. c #474840",
"4. c #4D4840",
"5. c #4C4A43",
"6. c #4E4C48",
"7. c #524D42",
"8. c #534F43",
"9. c #514D44",
"0. c #564F47",
"q. c #524D44",
"w. c #584F47",
"e. c #524E49",
"r. c #535146",
"t. c #5B5347",
"y. c #595345",
"u. c #55524A",
"i. c #5A524B",
"p. c #5A554C",
"a. c #5F5A4D",
"s. c #5C594E",
"d. c #565450",
"f. c #5A5651",
"g. c #5D5A52",
"h. c #605D4F",
"j. c #60584E",
"k. c #605C50",
"l. c #625E54",
"z. c #625F59",
"x. c #646155",
"c. c #686357",
"v. c #696257",
"b. c #65625B",
"n. c #6A665D",
"m. c #67695E",
"M. c #6B6661",
"N. c #6D6A63",
"B. c #706B66",
"V. c #726F6A",
"C. c #727365",
"Z. c #75736B",
/* pixels */
"O . + X X X + X + + % % + + + X O + + + + + + + + + + & % * % % * * * % @ @ & % + + + + + + + + + + + + @ + + + + + & & & & % + ",
"O + + + + . + + + + + + + X + % + + % % * + + + % % % % + + % + $ * * & + % * & + X + + + + & % + + % + + + + % + + + & * * + % ",
"+ % % + + O % * * * + + & % + * + + % & + + % * + + % % + + + % # & * % % + @ + + X + + % % + + + + + * + + % + + + + + + + + % ",
"+ + X X X   .     + + . + + + X X   + +   o + + + & & + + + O + + + * * * * * * * & * % + * * * + + @ @ * & + * * * & @ & + . + ",
"* : * * $ * * * $ * + * * @ * & * * ; $ ; ; 2 ; ; 2 v v 2 R R R v v F F 0 0 v 0 0 0 J R v 0 R 0 v L R R 0 * & * * * * ; 0 0 2 * ",
") v v 2 ; 2 0 v v F v 0 R ....) ..@.>.@.0.a.c.k.0.j.p.t.>.>.>.,.0.) v v 0 0 0 v 0 R 0.0.>.>.@.....) @.@.v R R 0 0 * ; 0 0 F v v ",
"F / ) R ) ) ) ) F R ..) @.u.r.u.0.0.k.j.t.x.k.r.r.p.g.p.k.u.t.t.a.0...v ) ....) ..@.0.0.0.r.>.0.0.@...R ) ..@.>.0.4.0.4.) ) ) R ",
"..4.0.u.a.x.a.u.0...@.4.@.) >.g.p.,.p.a.a.a.k.a.0.g.n.x.k.0.0.0.t.p.p.0.4.0.u.p.u.0.0.@.t.p.r.r.0.@.@.@...) 4.p.p.u.u.0.>.4...) ",
"u.k.p.p.k.u.p.g.f.u.4.0.0.) @.f.k.0.4.u.u.p.k.n.a.a.j.p.p.@.u.a.p.w.p.p.p.4.,.g.t.u.p.@.0...@.@.u.a.a.p.2.g.b.4.>.0.g.p.u.u.) R ",
"0.u.4.0.0.>.4.4.u.p.0.0.u.g.u.u.p.0.0.r.p.n.n.b.g.0.a.p.0.>.u.p.0.r.p.k.x.p.g.r.@.@.4.0.u.4.>.g.x.a.a.p.4.u.f.4.*.2.0.k.u.0.>.2.",
"C.b.n.b.k.M.N.u.a.r.0.u.p.n.g.g.4.u.p.u.g.x.n.b.b.u.k.x.c.x.0.@.r.g.M.z.N.N.N.0.) ) ..u.b.k.u.M.n.p.a.p.@...4.0.g.0.R r.g.u.0.4.",
"m.N.V.b.n.n.N.M.k.0.0.0...4.g.b.g.b.g.u.k.b.N.B.N.b.b.k.g.g.b.k.g.b.B.b.b.Z.N.f.u.0.p.u.g.b.f.u.4.@.0.u.4.@...4.u.) R @.f.n.b.f.",
"n.N.p.u.u...g.n.g.4.4.4.4.4.p.u.b.N.N.b.g.0.g.x.g.z.k.g.4.0.n.p.0.g.b.g.u.b.g.g.g.a.B.z.d.z.f.) R R [ >.>.4.[ ..4.v L 4.u.n.b.f.",
"N.N.g.a.f.k.N.V.M.4.2.u.p...) ..p.N.N.M.0.[ 2.f.u.p.f.p.4.4.0.d.g.u.4.2.1.2.4.2...4.0...[ f.g.....4...R ....@...4...) ..4.g.p.4.",
"r.4.u.p.p.g.z.z.g.6.u.u.>.@.0.f.u.u.4.0.4.u.u.4.4.0.0.4.4...4.u.6.u.6.2.4.4.3.......1...1.u.g.4.2.4.^ ......2...R L [ [ 1.u.2.4.",
"1.R @.....4.4.2.r.1.....4.4.@.0.>.4.4.1...u.u.R ^ ....2.@.^ 1...6.e...6.f.0.....4.4.2...4.4.u.u.0.1.0 v [ ....) ..^ ..2.4.....4.",
"..[ ) v : * ; 0 R R L ^ ..} ....R ^ R v 0 v 0 R R R ..R 0 R ..) 1.4...R ....2.4.6.0.4...[ ..u.0.4.R R L ..[ R ..[ ..R ^ R [ ..[ ",
"R 0 0 L R R 0 0 0 0 0 0 0 F R ) R R R R F R 0 R R [ 4.L 0 [ ^ 0 0 ..[ [ { ^ 4.2.....^ ..R P 4.4.1.} ......R R ..R 0 R [ ..) ..[ ",
"R 0 R R R ..v 0 0 R 0 - 0 0 L R v R J : 0 L ) ..J R P : 0 P L : P R R ^ } ) R ..^ R R ^ [ } 4.@.^ ) [ R R R R 2.R L R R R R ....",
"R R 1.@.R R v 0 0 0 : : 0 0 v L 0 v 0 0 0 0 L 0 * 0 0 J 0 - 0 : - J ^ [ R R R ^ R R R 0 R ..1...} ..[ R R L ) ..R R R ......R R ",
"R R L R R v 0 L 0 J 0 * 0 v 0 0 0 - ; 0 0 0 0 * * 0 0 0 0 - : - , P 0 R R J 0 R R R R R ^ R R [ 1.......R 0 P R R R R 0 R R L R ",
"v R 0 0 0 : 0 0 ; ; 0 - 0 v * 0 0 : * * * 0 : : * * & * 0 0 * 0 0 0 J R R R R R L R ....R R ) ..[ R ..1...R J R R 0 0 0 0 0 L R ",
"..R J : 2 0 L J - * * - 0 0 ; * * ; * * * * * * * : 0 * : 0 : 0 - 0 ^ J L 0 R R : J [ ^ R ....^ R ....1.R R J R R R R 0 R 0 v ..",
"R R 0 2 0 v L 0 0 0 * * * 0 0 * - : : - * - ; * * 0 J 0 0 * * : , L ..R J R L 0 R 0 J 0 0 R ^ R ^ ..R R ..R L R R P J L 1...[ ..",
"R ..: ; - 0 0 0 : 0 : * * * 0 * 0 0 : * * * * 0 0 ; * 0 Z * 0 0 R R R R ) R R R ....^ 0 L R 0 R R R R P R [ J R 0 P P J 1.4...4.",
"R R ; , * * ; * * 0 0 0 0 * 0 - * * : * * * * L 0 ; ; R ..0 0 0 ) R R R R R ..P R ..[ R R 4.) R v 0 R ..R R R R 0 R J ..[ } 4.u.",
"..) 0 : , * * 0 0 ; 0 : 0 0 0 0 0 : : 0 0 2 : 0 0 0 0 : 0 0 0 0 L J R 0 R ..^ J 0 ^ R R R ........R } 1.R 0 ) ) R R 0 1.4...u.0.",
"4...L 0 0 * * 0 R 0 * : 0 0 L R J * : 0 0 0 0 0 - - L 0 * - * * 0 ....R ..4.R 0 0 R [ R ^ R R ) 1.1.R 0 R R 0 L R ^ L L ..[ 1.1.",
"F R R v 0 ; 0 0 L R L L 0 0 v ^ R F 0 0 0 J R 0 0 0 0 0 0 0 0 J R ......r.4...R 0 0 ) R R R J 0 R R 0 0 R 0 J R R R ..[ R ^ ....",
"J v ) 0 0 0 0 ; L ) ) ) R v 0 R R ) R R L L 0 0 0 Z 0 0 J 0 0 J R F ..4.@.....R R L [ ..P J J 0 R 0 0 J 0 R ..^ 0 P { R L R R ..",
"0 0 R 0 [ R R L R 0 0 R @.....0 F F 0 L 0 * * R 0 * : 0 J 0 0 R R 0 ^ ..R ....L 0 : 0 0 0 0 L 0 R L L R J ....R L R 0 J L R L R ",
"0 R R : 2 R v 0 0 v L [ ) R R R R 0 L R > ; 0 ) R : , 0 0 0 ^ ..^ L R ......[ v 0 J J 0 0 0 J R F 0 R R 0 >...R R R J R R [ R J ",
"F R R * 0 0 0 0 R } R L 0 2 L R R R R R 0 0 R R v 0 0 P R 0 - J 0 R J R R R ^ 0 P J P ^ R R P R P : 0 0 R 3.[ 0 R R v ..R ....J ",
"....R R R R R J R R R 0 R 0 0 R R R 0 J 0 0 L J J F 0 0 0 0 - 0 0 J - 0 R ....R R 0 R R R } ..R R L 0 P R ....R L L R 4.^ L v 0 ",
"R R R R R R R R ^ ..4.4.....P R R R 0 J 0 J R R R R 0 0 R P 0 J 0 0 0 J J R ^ R R 0 R R J R } ^ R R R L P L 0 R R R R R 0 0 0 0 ",
"R 0 0 0 R R 1...[ L ..4.....R 0 0 R ..[ : 0 ^ ^ J J R ....R J L 0 0 0 , 0 0 J 0 Z v R } R R ....R 0 0 0 0 0 R ) 0 Z ..R 0 0 R R ",
"R [ R R R ..3.1.R 0 R ....) R L R [ [ R 0 R R R R P 0 - 0 0 v ..R R 0 0 J 0 J ^ R L J P J 0 R R 0 , J 0 0 L ....R ^ ..} ^ 0 0 L ",
"v ..R J R R [ ......[ [ ..) R L ..R R R R 2...[ R 0 0 0 > J 0 J R R R R R J J L R R 0 R J 0 L Z 0 0 J 0 J L R 0 R ^ J 0 J 0 L L ",
"R ........R ..^ R R R R ^ ..) 0 0 { ..4...R R R R 0 R ....R 0 R P 0 0 F P R R J v L R L 0 - : 0 0 0 R ^ 0 R [ L L L 0 J 0 0 R R ",
"4.4...2.4...4.@...R ..2...R ..4...>.....0 0 ^ 4.@.R [ ......R R R 0 R R 0 R ^ [ ) R 0 0 : * - J 0 0 J ) 0 R ^ R R J R R : : R R ",
"4.4.u.3.4.4.4...) R ) ......@.u.4.....R R 0 R ....@.g.0...R ..^ R [ ....R L L : J J 0 0 ; 0 0 : 0 0 0 R R P R R R P R R 0 0 R R ",
"[ ..4.3...0.4...R [ ............4.@.[ R 0 F ......4.d.@...R ..L R ..4.4.[ ..} J 0 0 0 , * ; 0 0 0 - - 0 R R R J R R v ^ R P R R ",
"..[ R L ....v [ ..R R ..} ........[ ..v * R ..4.4...u.u...{ [ L R @.2.2.4.4.^ 0 0 0 0 - * * * * 0 0 J 0 0 0 R P R R ....R R R F ",
"R R R R } ..) R R R ..4...4...2.4.@.@.........u.4...u.@.^ 4.4.......) ..[ R 0 0 : - * - * * % * 0 0 0 0 R R R P 0 L ..[ L R R R ",
"R L L L 0 R [ R R R [ ..R 4.4.0.p.g.g...) 4.0.4.u.4.^ ..@.@.[ ....R J Z 0 0 L 0 * * * * * * * - 0 J - * R R R L R v ..3.P v L v ",
"R ^ L : 0 0 0 [ R [ ....R ..@.u.u.g.g.2.[ R R 2.u.4.[ 4...2...R R R 0 0 L R L 0 ; : 0 : 0 * * : 0 0 - 0 0 P R R R R R R 0 R 2 0 ",
"[ 0 - : 0 : 0 2.} P ....R [ 4.0.4.4.....{ 0 0 ..4.2.....) 4...R R ..R R ) R L R ^ R L : : 0 : : 0 0 0 L v : : L 0 0 0 0 0 [ [ ..",
"R , ; * * * * 0 R R R ) ....4.@...) ....R F L R ) ..4.^ ^ ^ J J R } L 0 0 0 R 0 0 v 0 v 0 : 0 0 0 , : 0 L 0 R { 0 0 ^ R R ....) ",
", 0 R - & 0 0 0 R L J L { ) R ) 4.2.1...R ) [ R R ..4.2...L R L 0 0 : : * 0 0 : 0 : 0 0 0 0 P R Z J 0 0 0 0 L [ R 0 0 0 * 0 R 0 ",
": * * * 0 P F L P R L 0 R R L L ..0...R v R 0 L v ) ..[ R * * * : : - - : 0 : 0 0 0 0 L 0 0 0 0 0 ^ R 0 0 0 0 R 0 0 0 0 * Z 0 0 ",
"0 0 0 L F 2 0 R { ..R 0 R 4...R ..^ R R L 0 0 0 R R [ ..0 & + * 0 0 J 0 0 0 : 0 ; 0 0 0 J 0 ; : 0 R R 0 J R ) R R v 0 0 0 0 0 L ",
"0 : R 0 R 0 0 v R 1.R R ..1.^ 0 0 0 L L R 0 0 0 R R R L * * * + * : J 0 0 0 0 0 0 0 - * * - 0 : 0 R J J Z ^ ..L R 0 ^ ..L L ....",
"0 : L 0 * * 0 L R ^ R R J ^ ..^ 0 * * R R 0 0 0 L R 2 ; & * 0 0 0 J 0 * 0 R : : , * 0 0 - + & * 0 0 : R R R R L 0 0 R ^ ..) R P ",
"0 0 J 0 0 R J v R ) R 0 J R [ ^ R 0 L L 0 , 0 0 0 : * * * * 0 R R R R 0 0 v * * * , F L R 0 * : 0 v J R ..^ R ) R [ L Z L ^ ..L ",
"0 0 0 L J J 0 R R R 0 0 0 R 1.[ 1.....4.R 0 J J ) J * * * 0 ) 4.[ R R J * 0 0 0 0 R R R R 0 0 0 R ^ L R R R ^ [ [ ) ^ R L ....R ",
"0 0 0 0 L 0 R ..[ R R ....[ ..2...4.4.e.1.R ) R R P * 0 0 [ u.p.......[ 0 0 v 0 0 L [ R : ; 0 ; P [ ^ R [ L ) ) ....R L ) R P ..",
"F J - 0 R ) R L R R { ......[ 6...2.4...R R R 0 ; * 0 ^ J R r.0.....R ^ } ..) R 0 Z R v 0 R R L 0 R ..R 0 R [ [ R R J J R ) L ..",
"..R * : R v 0 0 R R R ..@.0.u.4.4.2...[ R P 0 0 0 - - 0 - R R ..2.) : 0 F R R 0 * 0 0 0 0 R 0 : R ....R R ..4...R J R 0 R ..R L ",
"R 0 0 J 0 0 ; 0 v J R R ..4.4.....1.^ R R ) J * * * 0 0 0 ........L * 0 0 * 0 0 , J R 0 R ..R v R [ R ..>.u.4...L : 0 0 : J R F ",
"..@.....R L L [ R R ....[ ..u.4.4.1.^ R R ..R J L * * 0 R ..[ [ J * 0 0 0 0 0 0 0 0 0 0 0 ....R R R L ..[ 4.[ 0 0 0 R - 0 0 R ..",
"..@.....R 0 J R P R R ) 0 ..d.4...R ..R 0 0 ; 0 R v 0 0 R J 0 L 0 : 0 0 0 0 0 0 0 0 0 R R R ..R 0 0 J 0 0 R L * , 0 0 * 0 0 F R ",
"u.g.d...0 * : : 0 P R R 0 R R R [ ) ..) R ) R R ..F R 0 : - * 0 0 , L L v 0 0 0 : 0 0 R R L R J : : R J : : * * - * * 0 R L 0 : ",
"m.b.g.4.^ R L L 0 0 J R 0 * * 0 L L L 0 R 4.u.d.r.R : 0 * * * 0 * 0 0 R R R 0 : * * 0 : 0 v R R P L - * - 0 * : 0 0 L R 0 * * - ",
"g.0.4.6...R 0 0 R 0 * + * : 0 - 0 J J 0 ..4.4.u.4.R v 0 0 , 0 0 * 0 L J R R v R 0 0 0 ; 0 R R R 0 0 - - R : 0 0 0 0 0 0 - , * - "
};
