/* XPM */
static char *west[] = {
/* columns rows colors chars-per-pixel */
"64 64 150 2 ",
"   c #161614",
".  c #191713",
"X  c #1B1A15",
"o  c #1D1D19",
"O  c #211E1A",
"+  c #24231E",
"@  c #28251F",
"#  c #26281F",
"$  c #262521",
"%  c #292622",
"&  c #272822",
"*  c #2C2B25",
"=  c #2E2D29",
"-  c #302E27",
";  c #312E2A",
":  c #2F3027",
">  c #2F302A",
",  c #303126",
"<  c #34322C",
"1  c #39352E",
"2  c #37392F",
"3  c #39382E",
"4  c #332F30",
"5  c #373630",
"6  c #363730",
"7  c #373730",
"8  c #363631",
"9  c #373631",
"0  c #373731",
"q  c #373732",
"w  c #363530",
"e  c #363531",
"r  c #383530",
"t  c #383531",
"y  c #383630",
"u  c #393630",
"i  c #383730",
"p  c #393631",
"a  c #3B3730",
"s  c #3A3731",
"d  c #3A3532",
"f  c #383732",
"g  c #393631",
"h  c #373832",
"j  c #373831",
"k  c #393830",
"l  c #383831",
"z  c #393831",
"x  c #383931",
"c  c #393931",
"v  c #3A3930",
"b  c #3A3931",
"n  c #393B31",
"m  c #3A3A31",
"M  c #383832",
"N  c #393932",
"B  c #393833",
"V  c #3B3832",
"C  c #3B3932",
"Z  c #3A3833",
"A  c #3A3933",
"S  c #3A3A32",
"D  c #3C3A31",
"F  c #3C3933",
"G  c #3D3A32",
"H  c #3C3B33",
"J  c #3D3B33",
"K  c #3E3A33",
"L  c #3B3C30",
"P  c #3C3D32",
"I  c #3F3D33",
"U  c #3C3A34",
"Y  c #3C3B34",
"T  c #3D3B34",
"R  c #3C3A35",
"E  c #3F3B34",
"W  c #3F3B35",
"Q  c #3C3A36",
"!  c #3E3B37",
"~  c #3B3C36",
"^  c #3D3E34",
"/  c #3F3E35",
"(  c #3E3F35",
")  c #3C3D37",
"_  c #3E3D36",
"`  c #3E3C37",
"'  c #3F3D37",
"]  c #3D3E36",
"[  c #3C3A34",
"{  c #3E3D39",
"}  c #403B36",
"|  c #413C35",
" . c #403C36",
".. c #403D36",
"X. c #413D36",
"o. c #403D37",
"O. c #403E36",
"+. c #403E37",
"@. c #423F37",
"#. c #413D36",
"$. c #423E39",
"%. c #403D3A",
"&. c #443F3A",
"*. c #423E3A",
"=. c #3D4037",
"-. c #3F4137",
";. c #3F4139",
":. c #424137",
">. c #424036",
",. c #414038",
"<. c #41403A",
"1. c #444038",
"2. c #41413C",
"3. c #43423D",
"4. c #42433D",
"5. c #45413D",
"6. c #44433C",
"7. c #44423B",
"8. c #48463E",
"9. c #49463E",
"0. c #46483E",
"q. c #4A493E",
"w. c #464540",
"e. c #494640",
"r. c #4A4641",
"t. c #474941",
"y. c #494A40",
"u. c #494A41",
"i. c #4B4A41",
"p. c #4B4943",
"a. c #4A4C45",
"s. c #4C4C45",
"d. c #4C4F47",
"f. c #4C4A43",
"g. c #4B4C48",
"h. c #4F4C48",
"j. c #4D4C4A",
"k. c #504F47",
"l. c #514C45",
"z. c #514C49",
"x. c #51504C",
"c. c #55514D",
"v. c #54544C",
"b. c #55534C",
"n. c #59564F",
"m. c #555653",
"M. c #585551",
"N. c #575B56",
"B. c #5D5B53",
"V. c #696B67",
/* pixels */
"s.c.c.s.e.c c h < < * % * ; * * * < < +.+.c 4.+.c < c w < w < < < w c < < c c c < c < * c s c 1 < c c c s < 1 s * * * < c 1 ; ; ",
"g.m.g.c.s.c c < * * = = < < < * * * ; 1 1 c < * % = < s s c c w 1 w s s < * > < < < < < w c +.1 < 1 c s < c c c < < ; < w ; < < ",
"4.4.g.s.c > - * * % % * ; < < c < * * ; 3 c s < * < < 1 c s < < < < < c c < < s < < c < < 4.1.< < c s c c %.4.c c c s < ; < ; < ",
"s.8.4.; * * @ * * @ O * * * ; < < ; ; - 1 1 < < c c s < < w c =.=.< < c c +.+.c < c w * c s.c < s c c c c %.s = < < < 1 w < < < ",
"4.%.< * * $ @ @ @ @ @ = * * * * * < ; * < < < < < 3 < s < 1 +.%.+.< ; < c 4.+.s < < < 1 s.k.+.c 1 ; < w < w ; = = < < < < ; ; ; ",
"s { c c c < * @ @ $ @ * % ; < * % * ; * < 1 < s c c c c s < c +.+.+.< = c { 1 < < 1 c s.8.e.4.s < < < < < * * > * < < c < < < < ",
"s c c c 4.+.c * * * $ % * < s < ; ; < 1 c %.1 s +.c %.%.c < 4.s.8.+.s < s < < c c c 4.4.4.%.; < c < c s < ; = = > w < < w ; ; s ",
"s s < < * * < * * - * * * 1 c s * < %.s < c %.s.4.+.4.1.s.q.s.c.q.4.4.< 3 > 1 4.{ c < ; 1 3 * < c w 4.c s w < < < < < < * * ; < ",
"> * < < % * = * * < ; * ; c 4.s c c < < < < c 4.3 < 4.c.B.l.s.n.t.c.M.s.e.%.c c c c s < < < < c h < c < w c < < < * ; < ; = < < ",
"* * ; c ; = < * * < s ; * c 4.+.s.8.%.s ; = c 4.8.4.8.c.c.4.s.c.N.V.B.s.4.c c c c 4.c c c c c c < w < < < < < w < * = < < > * ; ",
"* < s w < s w c s 1 c s < c +.c c 4.c c < 1 s 4.s.n.l.8.q.s.s.s.B.c.c c 4.s w < < < < c c c c c w < w = = - < w < < c c w < < - ",
"& , < < < c 1 w c s < s c < ; 1 < < < < < c h c 4.e.s.s.4.%.+.c 4.w < < c +.< ; < < s < < c s s < w w = < < < < < c c s c < c ; ",
"* % * = * ; < < c c 1 < %.c < - * * ; 3 < 4.e.8.c +.s.n.s.< < c < < s c < < < < < w < w < < ; ; < < ; ; < c s < s w c < < < < < ",
"& = ; * * < < < c c 1 1 %.{ < < 1 c c +.s.8.e.8.e.s.s.l.s.+.c 4.s.+.< s ; ; < w w s c c < < < < < < < < * < < < < * ; ; < ; s s ",
"$ * < ; < < < c c c c < 1 s c c 3 < < c 4.{ 8.c.s.4.8.4.s.+.c 4.c < * % * * < < < < s c < ; < c h s < * * * * < < < 1 w s c < < ",
"% * % % * < = s s c c < < * ; < c < 1 c < < e.8.4.8.s.4.4.c * < < w 1 ; < w c w 1 < < 1 < < 1 < < s ; < < = * * ; - c c %.c < w ",
"@ @ % % % ; < < < < < w < < < < < < c c +.c 4.s.l.s.s.s.4.;.< < c 4.c c +.s.4.; * < < < c c * * * = ; = < ; ; w w c c c w c w < ",
"@ @ @ @ @ * = * < - ; - < * ; < c c s c c +.l.M.c.8.4.4.4.s < c 3 1 c s < s c < w c c < w { 1 < < < < = < < w < < < * < , w < ; ",
"@ @ $ * $ * % ; c < * ; < * = s < < < c c c c 8.c.4.4.8.c < < c c < ; ; * < 3 s < 4.s * ; < c { h w < w < < < < < < ; < c < < ; ",
"@ @ * * * * * * < - * * * * * * * ; w c c c c 4.8.4.4.8.4.c < c 1.1 - = < s s 1 ; 1 < ; w < < c < ; w < * ; = ; < < ; < < w < ; ",
"@ % @ @ * = * @ $ % % * * $ $ @ % ; < * < s c 4.4.+.4.w.%.1 4.%.c c < s c < c 1 c < < < c < < < < < < ; = * * * < < ; ; ; < = = ",
"@ $ % @ $ * * * * $ $ % * = * = ; * * < < < w s c c c %.4.4.z.z.4.1 c c c c c = * < s ; w = = < < - > * * = w c < = ; < w = * = ",
"$ @ @ @ $ $ @ % * $ @ @ % @ $ * < < ; < > * w c c +.c c 1.+.s.e.+.c +.c < < - * - c 1 * ; * * ; < < * * * < s w = < < < < < w < ",
"$ $ $ % $ @ $ @ @ @ @ @ % @ O @ * * = < * * ; * ; +.c c s c e.4.+.4.%.c w * = 1 c c < ; < < ; * < < * w w < w < < < c < ; < w s ",
"@ @ $ @ @ @ @ @ @ O @ @ $ * * * * = < < ; < < * ; c w %.4.0.4.4.+.c 1 4.c < s < 3 < < = ; < ; % * ; = w c < < w < < < * * ; < s ",
"$ @ O o o @ $ * $ @ @ @ $ * = $ * = < s < < s < +.4.%.c.4.s.l.8.c c s +.4.3 c < < * < < ; , ; * & = * < < c s 1 w c w < < * = ; ",
"$ @ @ $ @ @ $ $ @ @ @ @ * * * = * ; ; = 1 c w c 4.4.c w < 4.s.4.+.4.4.4.1.+.1 < < * * * - ; < ; # * * < s < w < < ; < < < < < ; ",
"@ @ $ $ $ @ @ $ @ @ % @ = < w w w < - ; c 1 < e.8.8.c s 8.s.8.4.8.8.8.s.4.c c = ; ; < < - ; < < < < c %.c w s c s < s < h < s c ",
"& $ $ @ @ $ $ % % % = * * * = < < w < w c < c s.4.4.s +.%.%.s s 4.c c +.c < < - - ; = * * * * < c < c c < < < < c c c w < * = < ",
"* * % @ @ $ % $ @ @ $ $ * * * ; w c c c 3 c s 1 < c < ; < 1 < s < < < s 1 c c s 1 < < ; = * < c c ; ; * $ * < < < = < < < < * = ",
"= * % @ $ $ O @ % @ @ @ $ * w w , < < < = s < - * = ; - : < c s c < * < c e.+.s 1 1 4.;.s c 4.w.c < { s < s < ; * > * ; < s < w ",
"* $ $ $ % @ o O $ & % @ * ; * w < * - > = c 4.c , ; s s < - * ; c < < 4.%.< < %.< 1 %.+.s w < s > < 4.1 +.c * * * = = = < < < < ",
"* % $ % $ @ @ O @ = < * = < < { < = * ; < c c w c 4.+.s c < < +.+.c 4.c c s 4.+.< w { 4.< ; * < ; = = * c c % % * * * * = < * * ",
"* * * $ O @ @ O o @ * = * = < w = = ; < < < < < < +.4.%.< < c %.c s c s 1 c %.s c 4.s < < s < < < < % @ = < % * * = ; < > < - = ",
"* = * % @ @ @ @ @ O O $ $ % = ; * * ; ; - * ; < < w +.%.< < c c < < < < < s c %.c c < ; < < < ; ; ; ; = = * * * ; < - = ; > * $ ",
"= = = @ @ @ % * @ o O $ % % * * $ % * - * * ; ; ; = < c c { %.%.w ; = < w c s 4.4.c ; * < < < ; * = ; < < = < = = $ @ * ; < = % ",
"* = * * * * @ @ @ $ $ @ $ $ @ $ $ @ * = * ; < < w s s c w s < s w < < c c c c c < c s < s < * = * $ $ * * ; < < * & * * = < < = ",
"* * ; ; * * $ $ @ $ @ @ @ % @ % @ % $ * < < < < { 4.c s 4.w ; ; < < 1 c 1 < c c c 4.c c s < * = * = * * * ; = * % * * ; * * < * ",
"* * ; * * * ; * @ @ @ @ @ % % * * = % * c w < < h c s c s < * * < < c 4.c w < c c s = < < < s w < * * < = * * * * & % * * * ; < ",
"% * * = * * * $ $ % $ @ * * * * * * * < < = < < < < c { < > < = < s c c < < w +.%.c c c < * < < < * ; < < ; = ; * * $ % ; ; ; < ",
"* * = = ; * * * = * $ % ; < * ; < ; ; ; * ; < < = ; < s < < < = = < s < * c 4.c c 4.c c c < w < < < < ; < < ; ; * * = < < < < = ",
"; < * < ; = ; < < * * ; * < c c < < c s < ; < < < ; * * ; < < w < < s < < s < < < s < s w < s < < < ; < < ; * < < * < < > ; < = ",
"= = < ; > < < s s = < < * - < w s 1 s < ; w < < w < ; ; < * * < w s w < w { c w c c w c s < ; ; - * * < < ; < < < - ; * ; = ; < ",
"% - < < < < w = w < ; * * * < < 1 w s < * < < ; ; * ; = % @ @ $ * < w ; w c c c s < ; < 1 * * * < * * = < < c < < < < ; * = * * ",
"@ * < ; < < < = * $ $ * * ; < < < < c c * * * = = @ % @ o $ $ $ $ * = ; s { s ; < ; % * * * * * * * * * < < ; < 1 c s < < c < * ",
"$ % * * * ; ; < = * = ; = @ = * , ; < * & * = * % % * @ @ * * * = < < < ; < < > < < * < = > * * * = < < < < < * < c < < < c %.w ",
"& % $ * * * * * * * * * * * ; < < * ; ; * * * * = % * % * = * $ * s s ; = < < = < < = = = * * * * ; ; > < ; = = = < ; s w * < < ",
"@ @ @ * $ & * & % * = * * ; < ; ; ; > < * @ % * = = = * < < * @ $ < < = ; < = * * * * * * * * = = = = * * = * * * = - < < = * $ ",
"& $ % % @ % * * * * * * ; < c < > * % @ @ * * * * * * < < = * $ * < * ; < * $ % * $ % * * = < ; - ; < = < < < < w < * * < < % * ",
"* * % $ $ @ * = * = * % * * ; = = * % % * * * ; * * * * * % * * - * * ; ; * * ; * @ % * * * * ; * < < < w < w < < < ; 1 < * * < ",
"* * $ @ @ @ * * * ; * * * * * * * > * * * * = ; * * % @ % @ @ $ @ % % * * * * ; % $ * = * % * = * & * * < s < * * < - s < < = ; ",
"* * % $ $ % % % * = < * * < < < ; = = * % $ * = * $ $ % * % % % # * * % % $ * ; * % = ; * & ; < * * < < < < < 1 w < % * * * * % ",
"< = * * % % % * * * = % * < w < ; * = * * % * = % % * % * = * ; < ; * * $ @ * ; < * ; * * * w s < w s < * * < < < ; * * $ @ @ % ",
"= * * ; = * * = * % * * * < * = < < ; * @ @ $ * $ % ; = * ; = ; s < * % * * ; ; % @ * = = ; < w c { s * = ; * * * * * * * * * % ",
"* * * * * * ; = ; * = * * < ; ; < w w < * % $ * $ % = * $ * * = = = * & * * ; * $ % = - < < * = < w < * * * * * * * * = * * $ $ ",
"= * * * * * < = < ; ; ; < < ; 4 < < w w ; = $ % * * * @ $ % $ $ $ * * @ $ $ * * ; < w < < ; * = < < < < < * * * * * * = @ @ % * ",
"* < = = * * < = ; < w ; < = * ; w * @ $ * * % % * $ $ * * * % * * * % $ $ & * * = < c s < < - * = * = < c < * * * * @ $ @ $ * * ",
"< * * * * * ; < < * * = = * ; < * % @ $ * # * % $ $ * * * * * ; ; * * * % * % * < < w ; w < * ; ; < * * < < * * > * $ % @ @ @ @ ",
"; * $ * * * = ; ; * * * = < < * $ * % @ @ @ @ $ @ % % % @ * * % = ; < < * * = * % * ; < < * * ; * > < < < < < ; = * $ @ @ @ @ @ ",
"@ @ % & * $ & $ * * = * * ; ; * * * * @ $ % % % * * & @ % * * $ = < s w ; * = * $ % = < < w ; < < s s < ; * = * * % % $ @ $ % @ ",
"@ @ * % & * % * % % @ @ @ @ % % $ @ % * = < * $ * < < = < * * * w w < s > * < < ; = = ; - < c { c s < * * % @ $ @ @ @ = @ @ $ @ ",
"$ % % $ @ $ % % % * @ $ $ % $ @ o X O @ @ * = = = = ; < < < > < < < > < ; = ; w < < < < * > w < * % % $ * $ $ * @ @ % * * @ @ @ ",
"& % @ $ $ @ $ @ @ @ $ % & @ X o X . X X X o @ = * * = w c c h w < % < < ; = * * * * = s < * * $ @ % $ @ @ % $ & $ $ * % $ @ @ @ ",
"@ $ $ & * % @ O @ @ $ @ o .   . X   X . X X . X . X @ $ * * * = < * s w = ; > ; < * $ < < * $ $ * % $ @ @ @ $ @ @ @ @ @ @ o O @ "
};
